/* XPM */
static char *result[] = {
/* columns rows colors chars-per-pixel */
"64 64 8 1 ",
"  c #1A0521",
". c #820036",
"X c #BF0E30",
"o c #BA7E0E",
"O c #E9F236",
"+ c #4701A8",
"@ c #3678F2",
"# c None",
/* pixels */
"############################            ########################",
"############################            ########################",
"############################            ########################",
"############################            ########################",
"####################        ++++@@@@@@@@        ################",
"####################        ++++@@@@@@@@        ################",
"####################        ++++@@@@@@@@        ################",
"####################        ++++@@@@@@@@        ################",
"################    ++++@@@@@@@@@@@@@@@@++++++++    ############",
"################    ++++@@@@@@@@@@@@@@@@++++++++    ############",
"################    ++++@@@@@@@@@@@@@@@@++++++++    ############",
"################    ++++@@@@@@@@@@@@@@@@++++++++    ############",
"############    ++++@@@@@@@@@@@@@@@@@@@@@@@@    ################",
"############    ++++@@@@@@@@@@@@@@@@@@@@@@@@    ################",
"############    ++++@@@@@@@@@@@@@@@@@@@@@@@@    ################",
"############    ++++@@@@@@@@@@@@@@@@@@@@@@@@    ################",
"############    @@@@@@@@@@@@@@@@@@@@@@@@@@@@++++    ############",
"############    @@@@@@@@@@@@@@@@@@@@@@@@@@@@++++    ############",
"############    @@@@@@@@@@@@@@@@@@@@@@@@@@@@++++    ############",
"############    @@@@@@@@@@@@@@@@@@@@@@@@@@@@++++    ############",
"########    ++++++++@@@@@@@@@@@@@@@@@@@@@@@@@@@@    ############",
"########    ++++++++@@@@@@@@@@@@@@@@@@@@@@@@@@@@    ############",
"########    ++++++++@@@@@@@@@@@@@@@@@@@@@@@@@@@@    ############",
"########    ++++++++@@@@@@@@@@@@@@@@@@@@@@@@@@@@    ############",
"########        ++++++++@@@@@@@@@@@@@@@@@@@@++++        ########",
"########        ++++++++@@@@@@@@@@@@@@@@@@@@++++        ########",
"########        ++++++++@@@@@@@@@@@@@@@@@@@@++++        ########",
"########        ++++++++@@@@@@@@@@@@@@@@@@@@++++        ########",
"########    oooo    ++++++++++++++++++++++++    OOOO    ########",
"########    oooo    ++++++++++++++++++++++++    OOOO    ########",
"########    oooo    ++++++++++++++++++++++++    OOOO    ########",
"########    oooo    ++++++++++++++++++++++++    OOOO    ########",
"########    oooooooo    ++++++++++++++++    OOOOoooo    ########",
"########    oooooooo    ++++++++++++++++    OOOOoooo    ########",
"########    oooooooo    ++++++++++++++++    OOOOoooo    ########",
"########    oooooooo    ++++++++++++++++    OOOOoooo    ########",
"############    oooooooo                OOOOoooo    ############",
"############    oooooooo                OOOOoooo    ############",
"############    oooooooo                OOOOoooo    ############",
"############    oooooooo                OOOOoooo    ############",
"############            ....XXXX....    oooo        ############",
"############            ....XXXX....    oooo        ############",
"############            ....XXXX....    oooo        ############",
"############            ....XXXX....    oooo        ############",
"############    ....XXXXXXXXXXXXXXXX....    ....    ############",
"############    ....XXXXXXXXXXXXXXXX....    ....    ############",
"############    ....XXXXXXXXXXXXXXXX....    ....    ############",
"############    ....XXXXXXXXXXXXXXXX....    ....    ############",
"########    ........XXXXXXXXXXXXXXXXXXXX........    ############",
"########    ........XXXXXXXXXXXXXXXXXXXX........    ############",
"########    ........XXXXXXXXXXXXXXXXXXXX........    ############",
"########    ........XXXXXXXXXXXXXXXXXXXX........    ############",
"########    ........XXXXXXXXXXXXXXXXXXXXXXXX........    ########",
"########    ........XXXXXXXXXXXXXXXXXXXXXXXX........    ########",
"########    ........XXXXXXXXXXXXXXXXXXXXXXXX........    ########",
"########    ........XXXXXXXXXXXXXXXXXXXXXXXX........    ########",
"########    ............XXXXXXXXXXXXXXXX............    ########",
"########    ............XXXXXXXXXXXXXXXX............    ########",
"########    ............XXXXXXXXXXXXXXXX............    ########",
"########    ............XXXXXXXXXXXXXXXX............    ########",
"############                                        ############",
"############                                        ############",
"############                                        ############",
"############                                        ############"
};
