/* XPM */
static char *_29eadc5b43247d3c2876856302bfe17P9YWQ05NQX5fCUWC[] = {
/* columns rows colors chars-per-pixel */
"64 64 5 1 ",
"  c #083E1E",
". c #0A4626",
"X c #17482C",
"o c #1E5232",
"O c #115A37",
/* pixels */
"ooooOOOOOOOO    ....    XXXXoooo........OOOOXXXXooooooooOOOOXXXX",
"ooooOOOOOOOO    ....    XXXXoooo........OOOOXXXXooooooooOOOOXXXX",
"ooooOOOOOOOO    ....    XXXXoooo........OOOOXXXXooooooooOOOOXXXX",
"ooooOOOOOOOO    ....    XXXXoooo........OOOOXXXXooooooooOOOOXXXX",
"XXXXXXXXOOOOOOOO....    ooooOOOO    OOOOOOOOooooOOOOOOOOoooooooo",
"XXXXXXXXOOOOOOOO....    ooooOOOO    OOOOOOOOooooOOOOOOOOoooooooo",
"XXXXXXXXOOOOOOOO....    ooooOOOO    OOOOOOOOooooOOOOOOOOoooooooo",
"XXXXXXXXOOOOOOOO....    ooooOOOO    OOOOOOOOooooOOOOOOOOoooooooo",
"ooooXXXXoooo....    OOOOOOOOOOOOOOOOOOOOOOOOOOOO....OOOO    XXXX",
"ooooXXXXoooo....    OOOOOOOOOOOOOOOOOOOOOOOOOOOO....OOOO    XXXX",
"ooooXXXXoooo....    OOOOOOOOOOOOOOOOOOOOOOOOOOOO....OOOO    XXXX",
"ooooXXXXoooo....    OOOOOOOOOOOOOOOOOOOOOOOOOOOO....OOOO    XXXX",
"XXXX    XXXXXXXXXXXXOOOO....OOOOXXXXoooo        XXXX........    ",
"XXXX    XXXXXXXXXXXXOOOO....OOOOXXXXoooo        XXXX........    ",
"XXXX    XXXXXXXXXXXXOOOO....OOOOXXXXoooo        XXXX........    ",
"XXXX    XXXXXXXXXXXXOOOO....OOOOXXXXoooo        XXXX........    ",
"ooooXXXX........oooo....    ooooooooXXXX    oooo    oooo........",
"ooooXXXX........oooo....    ooooooooXXXX    oooo    oooo........",
"ooooXXXX........oooo....    ooooooooXXXX    oooo    oooo........",
"ooooXXXX........oooo....    ooooooooXXXX    oooo    oooo........",
"ooooOOOOOOOOooooXXXXXXXX....oooo    OOOOXXXXXXXXOOOO....    oooo",
"ooooOOOOOOOOooooXXXXXXXX....oooo    OOOOXXXXXXXXOOOO....    oooo",
"ooooOOOOOOOOooooXXXXXXXX....oooo    OOOOXXXXXXXXOOOO....    oooo",
"ooooOOOOOOOOooooXXXXXXXX....oooo    OOOOXXXXXXXXOOOO....    oooo",
"        oooo    ....XXXXoooo    oooo....XXXXOOOOOOOOoooo    ....",
"        oooo    ....XXXXoooo    oooo....XXXXOOOOOOOOoooo    ....",
"        oooo    ....XXXXoooo    oooo....XXXXOOOOOOOOoooo    ....",
"        oooo    ....XXXXoooo    oooo....XXXXOOOOOOOOoooo    ....",
"ooooOOOOXXXX    ....            OOOOXXXX........OOOOOOOOXXXX....",
"ooooOOOOXXXX    ....            OOOOXXXX........OOOOOOOOXXXX....",
"ooooOOOOXXXX    ....            OOOOXXXX........OOOOOOOOXXXX....",
"ooooOOOOXXXX    ....            OOOOXXXX........OOOOOOOOXXXX....",
"    ooooXXXXXXXX        ooooXXXXooooXXXXXXXX    OOOO....oooo    ",
"    ooooXXXXXXXX        ooooXXXXooooXXXXXXXX    OOOO....oooo    ",
"    ooooXXXXXXXX        ooooXXXXooooXXXXXXXX    OOOO....oooo    ",
"    ooooXXXXXXXX        ooooXXXXooooXXXXXXXX    OOOO....oooo    ",
"oooooooooooo    OOOOooooXXXXXXXX    oooo....    oooo....        ",
"oooooooooooo    OOOOooooXXXXXXXX    oooo....    oooo....        ",
"oooooooooooo    OOOOooooXXXXXXXX    oooo....    oooo....        ",
"oooooooooooo    OOOOooooXXXXXXXX    oooo....    oooo....        ",
"OOOOOOOOXXXXooooOOOOoooo    ....OOOOOOOO                XXXXXXXX",
"OOOOOOOOXXXXooooOOOOoooo    ....OOOOOOOO                XXXXXXXX",
"OOOOOOOOXXXXooooOOOOoooo    ....OOOOOOOO                XXXXXXXX",
"OOOOOOOOXXXXooooOOOOoooo    ....OOOOOOOO                XXXXXXXX",
"        XXXXXXXXoooo    ooooXXXXooooOOOOOOOO    ooooXXXXXXXX    ",
"        XXXXXXXXoooo    ooooXXXXooooOOOOOOOO    ooooXXXXXXXX    ",
"        XXXXXXXXoooo    ooooXXXXooooOOOOOOOO    ooooXXXXXXXX    ",
"        XXXXXXXXoooo    ooooXXXXooooOOOOOOOO    ooooXXXXXXXX    ",
"XXXXooooooooXXXX....oooo....    ooooXXXX    ooooOOOOOOOOoooooooo",
"XXXXooooooooXXXX....oooo....    ooooXXXX    ooooOOOOOOOOoooooooo",
"XXXXooooooooXXXX....oooo....    ooooXXXX    ooooOOOOOOOOoooooooo",
"XXXXooooooooXXXX....oooo....    ooooXXXX    ooooOOOOOOOOoooooooo",
"XXXX    XXXXXXXXXXXXooooXXXX            OOOOXXXXOOOOooooOOOOOOOO",
"XXXX    XXXXXXXXXXXXooooXXXX            OOOOXXXXOOOOooooOOOOOOOO",
"XXXX    XXXXXXXXXXXXooooXXXX            OOOOXXXXOOOOooooOOOOOOOO",
"XXXX    XXXXXXXXXXXXooooXXXX            OOOOXXXXOOOOooooOOOOOOOO",
"        ooooXXXX        XXXXooooOOOOooooOOOOXXXXoooo            ",
"        ooooXXXX        XXXXooooOOOOooooOOOOXXXXoooo            ",
"        ooooXXXX        XXXXooooOOOOooooOOOOXXXXoooo            ",
"        ooooXXXX        XXXXooooOOOOooooOOOOXXXXoooo            ",
"XXXX        oooo    ........oooooooo....        ........    oooo",
"XXXX        oooo    ........oooooooo....        ........    oooo",
"XXXX        oooo    ........oooooooo....        ........    oooo",
"XXXX        oooo    ........oooooooo....        ........    oooo"
};
