/* XPM */
static char *_9febae9876a4a2ca1c6670502f7b985TSqGEnPCLUPI3sf6[] = {
/* columns rows colors chars-per-pixel */
"64 64 6 1 ",
"  c None",
". c black",
"X c #E98710",
"o c #F9AB0F",
"O c #FECC0F",
"+ c #FEFEFE",
/* pixels */
"                        ................                        ",
"                        ................                        ",
"                        ................                        ",
"                        ................                        ",
"                ........++++XXXXXXXXXXXX........                ",
"                ........++++XXXXXXXXXXXX........                ",
"                ........++++XXXXXXXXXXXX........                ",
"                ........++++XXXXXXXXXXXX........                ",
"            ....++++XXXXXXXXooooooooOOOOXXXXXXXX....            ",
"            ....++++XXXXXXXXooooooooOOOOXXXXXXXX....            ",
"            ....++++XXXXXXXXooooooooOOOOXXXXXXXX....            ",
"            ....++++XXXXXXXXooooooooOOOOXXXXXXXX....            ",
"        ....++++XXXXooooooooOOOOOOOOOOOOOOOOOOOOXXXX....        ",
"        ....++++XXXXooooooooOOOOOOOOOOOOOOOOOOOOXXXX....        ",
"        ....++++XXXXooooooooOOOOOOOOOOOOOOOOOOOOXXXX....        ",
"        ....++++XXXXooooooooOOOOOOOOOOOOOOOOOOOOXXXX....        ",
"        ....++++XXXXooooOOOOXXXXXXXXXXXXOOOOOOOOXXXX....        ",
"        ....++++XXXXooooOOOOXXXXXXXXXXXXOOOOOOOOXXXX....        ",
"        ....++++XXXXooooOOOOXXXXXXXXXXXXOOOOOOOOXXXX....        ",
"        ....++++XXXXooooOOOOXXXXXXXXXXXXOOOOOOOOXXXX....        ",
"    ....++++XXXXOOOOOOOOXXXXooooooooooooXXXXOOOOOOOOXXXX....    ",
"    ....++++XXXXOOOOOOOOXXXXooooooooooooXXXXOOOOOOOOXXXX....    ",
"    ....++++XXXXOOOOOOOOXXXXooooooooooooXXXXOOOOOOOOXXXX....    ",
"    ....++++XXXXOOOOOOOOXXXXooooooooooooXXXXOOOOOOOOXXXX....    ",
"    ....++++XXXXOOOOXXXXooooooooooooOOOOOOOOooooOOOOXXXX....    ",
"    ....++++XXXXOOOOXXXXooooooooooooOOOOOOOOooooOOOOXXXX....    ",
"    ....++++XXXXOOOOXXXXooooooooooooOOOOOOOOooooOOOOXXXX....    ",
"    ....++++XXXXOOOOXXXXooooooooooooOOOOOOOOooooOOOOXXXX....    ",
"    ....++++XXXXOOOOXXXXooooooooOOOOOOOOOOOOooooOOOOXXXX....    ",
"    ....++++XXXXOOOOXXXXooooooooOOOOOOOOOOOOooooOOOOXXXX....    ",
"    ....++++XXXXOOOOXXXXooooooooOOOOOOOOOOOOooooOOOOXXXX....    ",
"    ....++++XXXXOOOOXXXXooooooooOOOOOOOOOOOOooooOOOOXXXX....    ",
"    ....++++XXXXOOOOXXXXooooOOOOOOOOOOOOOOOOooooOOOOXXXX....    ",
"    ....++++XXXXOOOOXXXXooooOOOOOOOOOOOOOOOOooooOOOOXXXX....    ",
"    ....++++XXXXOOOOXXXXooooOOOOOOOOOOOOOOOOooooOOOOXXXX....    ",
"    ....++++XXXXOOOOXXXXooooOOOOOOOOOOOOOOOOooooOOOOXXXX....    ",
"    ....++++XXXXOOOOXXXXooooOOOOOOOOOOOOOOOOooooOOOOXXXX....    ",
"    ....++++XXXXOOOOXXXXooooOOOOOOOOOOOOOOOOooooOOOOXXXX....    ",
"    ....++++XXXXOOOOXXXXooooOOOOOOOOOOOOOOOOooooOOOOXXXX....    ",
"    ....++++XXXXOOOOXXXXooooOOOOOOOOOOOOOOOOooooOOOOXXXX....    ",
"    ....OOOOXXXXOOOOOOOOooooOOOOOOOOOOOOooooOOOOOOOOXXXX....    ",
"    ....OOOOXXXXOOOOOOOOooooOOOOOOOOOOOOooooOOOOOOOOXXXX....    ",
"    ....OOOOXXXXOOOOOOOOooooOOOOOOOOOOOOooooOOOOOOOOXXXX....    ",
"    ....OOOOXXXXOOOOOOOOooooOOOOOOOOOOOOooooOOOOOOOOXXXX....    ",
"        ....OOOOXXXXOOOOOOOOooooooooooooOOOOOOOOXXXX....        ",
"        ....OOOOXXXXOOOOOOOOooooooooooooOOOOOOOOXXXX....        ",
"        ....OOOOXXXXOOOOOOOOooooooooooooOOOOOOOOXXXX....        ",
"        ....OOOOXXXXOOOOOOOOooooooooooooOOOOOOOOXXXX....        ",
"        ....OOOOXXXXooooOOOOOOOOOOOOOOOOOOOOOOOOXXXX....        ",
"        ....OOOOXXXXooooOOOOOOOOOOOOOOOOOOOOOOOOXXXX....        ",
"        ....OOOOXXXXooooOOOOOOOOOOOOOOOOOOOOOOOOXXXX....        ",
"        ....OOOOXXXXooooOOOOOOOOOOOOOOOOOOOOOOOOXXXX....        ",
"            ....OOOOXXXXXXXXooooooooooooXXXXXXXX....            ",
"            ....OOOOXXXXXXXXooooooooooooXXXXXXXX....            ",
"            ....OOOOXXXXXXXXooooooooooooXXXXXXXX....            ",
"            ....OOOOXXXXXXXXooooooooooooXXXXXXXX....            ",
"                ........OOOOXXXXXXXXXXXX........                ",
"                ........OOOOXXXXXXXXXXXX........                ",
"                ........OOOOXXXXXXXXXXXX........                ",
"                ........OOOOXXXXXXXXXXXX........                ",
"                        ................                        ",
"                        ................                        ",
"                        ................                        ",
"                        ................                        "
};
