/* XPM */
static char *result[] = {
/* columns rows colors chars-per-pixel */
"64 64 10 1 ",
"  c #1E5232",
". c #115A37",
"X c #083E1E",
"o c #0A4626",
"O c black",
"+ c #17482C",
"@ c #F9AB0F",
"# c #E98710",
"$ c #FECC0F",
"% c #FEFEFE",
/* pixels */
"    ........XXXXooooXXXXOOOOOOOOOOOOOOOO....++++        ....++++",
"    ........XXXXooooXXXXOOOOOOOOOOOOOOOO....++++        ....++++",
"    ........XXXXooooXXXXOOOOOOOOOOOOOOOO....++++        ....++++",
"    ........XXXXooooXXXXOOOOOOOOOOOOOOOO....++++        ....++++",
"++++++++........OOOOOOOO@@@@@@@@@@@@####OOOOOOOO........        ",
"++++++++........OOOOOOOO@@@@@@@@@@@@####OOOOOOOO........        ",
"++++++++........OOOOOOOO@@@@@@@@@@@@####OOOOOOOO........        ",
"++++++++........OOOOOOOO@@@@@@@@@@@@####OOOOOOOO........        ",
"    ++++    OOOO@@@@@@@@$$$$$$$$$$$$%%%%%%%%####OOOO....XXXX++++",
"    ++++    OOOO@@@@@@@@$$$$$$$$$$$$%%%%%%%%####OOOO....XXXX++++",
"    ++++    OOOO@@@@@@@@$$$$$$$$$$$$%%%%%%%%####OOOO....XXXX++++",
"    ++++    OOOO@@@@@@@@$$$$$$$$$$$$%%%%%%%%####OOOO....XXXX++++",
"++++XXXXOOOO@@@@$$$$$$$$$$$$$$$$%%%%%%%%%%%%%%%%####OOOOooooXXXX",
"++++XXXXOOOO@@@@$$$$$$$$$$$$$$$$%%%%%%%%%%%%%%%%####OOOOooooXXXX",
"++++XXXXOOOO@@@@$$$$$$$$$$$$$$$$%%%%%%%%%%%%%%%%####OOOOooooXXXX",
"++++XXXXOOOO@@@@$$$$$$$$$$$$$$$$%%%%%%%%%%%%%%%%####OOOOooooXXXX",
"    ++++OOOO@@@@$$$$$$$$@@@@@@@@@@@@%%%%%%%%$$$$####OOOOoooooooo",
"    ++++OOOO@@@@$$$$$$$$@@@@@@@@@@@@%%%%%%%%$$$$####OOOOoooooooo",
"    ++++OOOO@@@@$$$$$$$$@@@@@@@@@@@@%%%%%%%%$$$$####OOOOoooooooo",
"    ++++OOOO@@@@$$$$$$$$@@@@@@@@@@@@%%%%%%%%$$$$####OOOOoooooooo",
"    OOOO@@@@$$$$$$$$@@@@%%%%%%%%%%%%@@@@$$$$$$$$@@@@####OOOO    ",
"    OOOO@@@@$$$$$$$$@@@@%%%%%%%%%%%%@@@@$$$$$$$$@@@@####OOOO    ",
"    OOOO@@@@$$$$$$$$@@@@%%%%%%%%%%%%@@@@$$$$$$$$@@@@####OOOO    ",
"    OOOO@@@@$$$$$$$$@@@@%%%%%%%%%%%%@@@@$$$$$$$$@@@@####OOOO    ",
"XXXXOOOO@@@@$$$$@@@@%%%%%%%%%%%%%%%%$$$$@@@@$$$$@@@@####OOOOoooo",
"XXXXOOOO@@@@$$$$@@@@%%%%%%%%%%%%%%%%$$$$@@@@$$$$@@@@####OOOOoooo",
"XXXXOOOO@@@@$$$$@@@@%%%%%%%%%%%%%%%%$$$$@@@@$$$$@@@@####OOOOoooo",
"XXXXOOOO@@@@$$$$@@@@%%%%%%%%%%%%%%%%$$$$@@@@$$$$@@@@####OOOOoooo",
"    OOOO@@@@$$$$@@@@%%%%%%%%%%%%$$$$$$$$@@@@$$$$@@@@####OOOOoooo",
"    OOOO@@@@$$$$@@@@%%%%%%%%%%%%$$$$$$$$@@@@$$$$@@@@####OOOOoooo",
"    OOOO@@@@$$$$@@@@%%%%%%%%%%%%$$$$$$$$@@@@$$$$@@@@####OOOOoooo",
"    OOOO@@@@$$$$@@@@%%%%%%%%%%%%$$$$$$$$@@@@$$$$@@@@####OOOOoooo",
"XXXXOOOO@@@@%%%%@@@@%%%%%%%%$$$$$$$$$$$$@@@@$$$$@@@@####OOOOXXXX",
"XXXXOOOO@@@@%%%%@@@@%%%%%%%%$$$$$$$$$$$$@@@@$$$$@@@@####OOOOXXXX",
"XXXXOOOO@@@@%%%%@@@@%%%%%%%%$$$$$$$$$$$$@@@@$$$$@@@@####OOOOXXXX",
"XXXXOOOO@@@@%%%%@@@@%%%%%%%%$$$$$$$$$$$$@@@@$$$$@@@@####OOOOXXXX",
"    OOOO%%%%%%%%@@@@%%%%$$$$$$$$$$$$$$$$@@@@$$$$@@@@####OOOOXXXX",
"    OOOO%%%%%%%%@@@@%%%%$$$$$$$$$$$$$$$$@@@@$$$$@@@@####OOOOXXXX",
"    OOOO%%%%%%%%@@@@%%%%$$$$$$$$$$$$$$$$@@@@$$$$@@@@####OOOOXXXX",
"    OOOO%%%%%%%%@@@@%%%%$$$$$$$$$$$$$$$$@@@@$$$$@@@@####OOOOXXXX",
"....OOOO%%%%%%%%%%%%@@@@$$$$$$$$$$$$@@@@$$$$$$$$@@@@####OOOO++++",
"....OOOO%%%%%%%%%%%%@@@@$$$$$$$$$$$$@@@@$$$$$$$$@@@@####OOOO++++",
"....OOOO%%%%%%%%%%%%@@@@$$$$$$$$$$$$@@@@$$$$$$$$@@@@####OOOO++++",
"....OOOO%%%%%%%%%%%%@@@@$$$$$$$$$$$$@@@@$$$$$$$$@@@@####OOOO++++",
"XXXXXXXXOOOO%%%%$$$$$$$$@@@@@@@@@@@@$$$$$$$$@@@@####OOOO++++XXXX",
"XXXXXXXXOOOO%%%%$$$$$$$$@@@@@@@@@@@@$$$$$$$$@@@@####OOOO++++XXXX",
"XXXXXXXXOOOO%%%%$$$$$$$$@@@@@@@@@@@@$$$$$$$$@@@@####OOOO++++XXXX",
"XXXXXXXXOOOO%%%%$$$$$$$$@@@@@@@@@@@@$$$$$$$$@@@@####OOOO++++XXXX",
"++++    OOOO####$$$$$$$$$$$$$$$$$$$$$$$$$$$$@@@@####OOOO        ",
"++++    OOOO####$$$$$$$$$$$$$$$$$$$$$$$$$$$$@@@@####OOOO        ",
"++++    OOOO####$$$$$$$$$$$$$$$$$$$$$$$$$$$$@@@@####OOOO        ",
"++++    OOOO####$$$$$$$$$$$$$$$$$$$$$$$$$$$$@@@@####OOOO        ",
"++++XXXX++++OOOO########$$$$$$$$$$$$@@@@@@@@####OOOO    ........",
"++++XXXX++++OOOO########$$$$$$$$$$$$@@@@@@@@####OOOO    ........",
"++++XXXX++++OOOO########$$$$$$$$$$$$@@@@@@@@####OOOO    ........",
"++++XXXX++++OOOO########$$$$$$$$$$$$@@@@@@@@####OOOO    ........",
"XXXXXXXX    ++++OOOOOOOO@@@@@@@@@@@@####OOOOOOOO    XXXXXXXXXXXX",
"XXXXXXXX    ++++OOOOOOOO@@@@@@@@@@@@####OOOOOOOO    XXXXXXXXXXXX",
"XXXXXXXX    ++++OOOOOOOO@@@@@@@@@@@@####OOOOOOOO    XXXXXXXXXXXX",
"XXXXXXXX    ++++OOOOOOOO@@@@@@@@@@@@####OOOOOOOO    XXXXXXXXXXXX",
"++++XXXXXXXX    XXXXooooOOOOOOOOOOOOOOOOXXXXXXXXooooooooXXXX    ",
"++++XXXXXXXX    XXXXooooOOOOOOOOOOOOOOOOXXXXXXXXooooooooXXXX    ",
"++++XXXXXXXX    XXXXooooOOOOOOOOOOOOOOOOXXXXXXXXooooooooXXXX    ",
"++++XXXXXXXX    XXXXooooOOOOOOOOOOOOOOOOXXXXXXXXooooooooXXXX    "
};
