/* XPM */
static char *result[] = {
/* columns rows colors chars-per-pixel */
"64 64 10 1 ",
"  c #1E5232",
". c #115A37",
"X c #083E1E",
"o c #0A4626",
"O c #17482C",
"+ c black",
"@ c #F9AB0F",
"# c #E98710",
"$ c #FEFEFE",
"% c #FECC0F",
/* pixels */
"    ........XXXXooooXXXXOOOO++++++++++++....OOOO        ....OOOO",
"    ........XXXXooooXXXXOOOO++++++++++++....OOOO        ....OOOO",
"    ........XXXXooooXXXXOOOO++++++++++++....OOOO        ....OOOO",
"    ........XXXXooooXXXXOOOO++++++++++++....OOOO        ....OOOO",
"OOOOOOOO........ooooXXXX++++@@@@@@@@####++++    ........        ",
"OOOOOOOO........ooooXXXX++++@@@@@@@@####++++    ........        ",
"OOOOOOOO........ooooXXXX++++@@@@@@@@####++++    ........        ",
"OOOOOOOO........ooooXXXX++++@@@@@@@@####++++    ........        ",
"    OOOO    ooooXXXX++++$$$$$$$$####@@@@####++++oooo....XXXXOOOO",
"    OOOO    ooooXXXX++++$$$$$$$$####@@@@####++++oooo....XXXXOOOO",
"    OOOO    ooooXXXX++++$$$$$$$$####@@@@####++++oooo....XXXXOOOO",
"    OOOO    ooooXXXX++++$$$$$$$$####@@@@####++++oooo....XXXXOOOO",
"OOOOXXXXOOOOOOOOOOOO++++%%%%%%%%####@@@@####++++OOOOooooooooXXXX",
"OOOOXXXXOOOOOOOOOOOO++++%%%%%%%%####@@@@####++++OOOOooooooooXXXX",
"OOOOXXXXOOOOOOOOOOOO++++%%%%%%%%####@@@@####++++OOOOooooooooXXXX",
"OOOOXXXXOOOOOOOOOOOO++++%%%%%%%%####@@@@####++++OOOOooooooooXXXX",
"    OOOOoooooooo++++$$$$$$$$####@@@@@@@@@@@@####++++    oooooooo",
"    OOOOoooooooo++++$$$$$$$$####@@@@@@@@@@@@####++++    oooooooo",
"    OOOOoooooooo++++$$$$$$$$####@@@@@@@@@@@@####++++    oooooooo",
"    OOOOoooooooo++++$$$$$$$$####@@@@@@@@@@@@####++++    oooooooo",
"    ........    ++++$$$$$$$$####@@@@@@@@@@@@####++++ooooXXXX    ",
"    ........    ++++$$$$$$$$####@@@@@@@@@@@@####++++ooooXXXX    ",
"    ........    ++++$$$$$$$$####@@@@@@@@@@@@####++++ooooXXXX    ",
"    ........    ++++$$$$$$$$####@@@@@@@@@@@@####++++ooooXXXX    ",
"XXXXXXXX    XXXX++++$$$$$$$$####@@@@####%%%%####++++    XXXXoooo",
"XXXXXXXX    XXXX++++$$$$$$$$####@@@@####%%%%####++++    XXXXoooo",
"XXXXXXXX    XXXX++++$$$$$$$$####@@@@####%%%%####++++    XXXXoooo",
"XXXXXXXX    XXXX++++$$$$$$$$####@@@@####%%%%####++++    XXXXoooo",
"    ....OOOOXXXX++++$$$$%%%%####@@@@####%%%%####++++....OOOOoooo",
"    ....OOOOXXXX++++$$$$%%%%####@@@@####%%%%####++++....OOOOoooo",
"    ....OOOOXXXX++++$$$$%%%%####@@@@####%%%%####++++....OOOOoooo",
"    ....OOOOXXXX++++$$$$%%%%####@@@@####%%%%####++++....OOOOoooo",
"XXXX    OOOOOOOO++++%%%%%%%%####%%%%####%%%%####++++oooo    XXXX",
"XXXX    OOOOOOOO++++%%%%%%%%####%%%%####%%%%####++++oooo    XXXX",
"XXXX    OOOOOOOO++++%%%%%%%%####%%%%####%%%%####++++oooo    XXXX",
"XXXX    OOOOOOOO++++%%%%%%%%####%%%%####%%%%####++++oooo    XXXX",
"            XXXX++++%%%%%%%%####%%%%@@@@%%%%####++++ooooXXXXXXXX",
"            XXXX++++%%%%%%%%####%%%%@@@@%%%%####++++ooooXXXXXXXX",
"            XXXX++++%%%%%%%%####%%%%@@@@%%%%####++++ooooXXXXXXXX",
"            XXXX++++%%%%%%%%####%%%%@@@@%%%%####++++ooooXXXXXXXX",
"........OOOO    ++++%%%%%%%%####%%%%@@@@%%%%####++++XXXXOOOOOOOO",
"........OOOO    ++++%%%%%%%%####%%%%@@@@%%%%####++++XXXXOOOOOOOO",
"........OOOO    ++++%%%%%%%%####%%%%@@@@%%%%####++++XXXXOOOOOOOO",
"........OOOO    ++++%%%%%%%%####%%%%@@@@%%%%####++++XXXXOOOOOOOO",
"XXXXXXXXOOOOOOOO++++%%%%%%%%####%%%%%%%%%%%%####++++OOOOOOOOXXXX",
"XXXXXXXXOOOOOOOO++++%%%%%%%%####%%%%%%%%%%%%####++++OOOOOOOOXXXX",
"XXXXXXXXOOOOOOOO++++%%%%%%%%####%%%%%%%%%%%%####++++OOOOOOOOXXXX",
"XXXXXXXXOOOOOOOO++++%%%%%%%%####%%%%%%%%%%%%####++++OOOOOOOOXXXX",
"OOOO        OOOOoooo++++@@@@@@@@####%%%%%%%%++++........        ",
"OOOO        OOOOoooo++++@@@@@@@@####%%%%%%%%++++........        ",
"OOOO        OOOOoooo++++@@@@@@@@####%%%%%%%%++++........        ",
"OOOO        OOOOoooo++++@@@@@@@@####%%%%%%%%++++........        ",
"OOOOXXXXOOOOOOOOOOOO++++%%%%%%%%####%%%%%%%%++++....    ........",
"OOOOXXXXOOOOOOOOOOOO++++%%%%%%%%####%%%%%%%%++++....    ........",
"OOOOXXXXOOOOOOOOOOOO++++%%%%%%%%####%%%%%%%%++++....    ........",
"OOOOXXXXOOOOOOOOOOOO++++%%%%%%%%####%%%%%%%%++++....    ........",
"XXXXXXXX    OOOOXXXXXXXX++++@@@@@@@@####++++OOOO    XXXXXXXXXXXX",
"XXXXXXXX    OOOOXXXXXXXX++++@@@@@@@@####++++OOOO    XXXXXXXXXXXX",
"XXXXXXXX    OOOOXXXXXXXX++++@@@@@@@@####++++OOOO    XXXXXXXXXXXX",
"XXXXXXXX    OOOOXXXXXXXX++++@@@@@@@@####++++OOOO    XXXXXXXXXXXX",
"OOOOXXXXXXXX    XXXXoooooooo++++++++++++XXXXXXXXooooooooXXXX    ",
"OOOOXXXXXXXX    XXXXoooooooo++++++++++++XXXXXXXXooooooooXXXX    ",
"OOOOXXXXXXXX    XXXXoooooooo++++++++++++XXXXXXXXooooooooXXXX    ",
"OOOOXXXXXXXX    XXXXoooooooo++++++++++++XXXXXXXXooooooooXXXX    "
};
