/* XPM */
static char *f1475eebd5404092debae59e3c858263MmMoioYWv3WIUqqC[] = {
/* columns rows colors chars-per-pixel */
"64 64 6 1 ",
"  c None",
". c black",
"X c #E98710",
"o c #F9AB0F",
"O c #FECC0F",
"+ c #FEFEFE",
/* pixels */
"                        ............                            ",
"                        ............                            ",
"                        ............                            ",
"                        ............                            ",
"                    ....++++XXXXXXXX....                        ",
"                    ....++++XXXXXXXX....                        ",
"                    ....++++XXXXXXXX....                        ",
"                    ....++++XXXXXXXX....                        ",
"                ....++++OOOOOOOOoooooooo....                    ",
"                ....++++OOOOOOOOoooooooo....                    ",
"                ....++++OOOOOOOOoooooooo....                    ",
"                ....++++OOOOOOOOoooooooo....                    ",
"                ....++++ooooOOOOXXXXXXXX....                    ",
"                ....++++ooooOOOOXXXXXXXX....                    ",
"                ....++++ooooOOOOXXXXXXXX....                    ",
"                ....++++ooooOOOOXXXXXXXX....                    ",
"            ....++++OOOOXXXXOOOOOOOOoooooooo....                ",
"            ....++++OOOOXXXXOOOOOOOOoooooooo....                ",
"            ....++++OOOOXXXXOOOOOOOOoooooooo....                ",
"            ....++++OOOOXXXXOOOOOOOOoooooooo....                ",
"            ....OOOOXXXXOOOOXXXXOOOOoooooooo....                ",
"            ....OOOOXXXXOOOOXXXXOOOOoooooooo....                ",
"            ....OOOOXXXXOOOOXXXXOOOOoooooooo....                ",
"            ....OOOOXXXXOOOOXXXXOOOOoooooooo....                ",
"            ....OOOOXXXXOOOOooooOOOOoooooooo....                ",
"            ....OOOOXXXXOOOOooooOOOOoooooooo....                ",
"            ....OOOOXXXXOOOOooooOOOOoooooooo....                ",
"            ....OOOOXXXXOOOOooooOOOOoooooooo....                ",
"            ....OOOOXXXXOOOOooooOOOOoooooooo....                ",
"            ....OOOOXXXXOOOOooooOOOOoooooooo....                ",
"            ....OOOOXXXXOOOOooooOOOOoooooooo....                ",
"            ....OOOOXXXXOOOOooooOOOOoooooooo....                ",
"            ....OOOOXXXXOOOOooooOOOOoooooooo....                ",
"            ....OOOOXXXXOOOOooooOOOOoooooooo....                ",
"            ....OOOOXXXXOOOOooooOOOOoooooooo....                ",
"            ....OOOOXXXXOOOOooooOOOOoooooooo....                ",
"            ....OOOOXXXXOOOOoooo++++oooooooo....                ",
"            ....OOOOXXXXOOOOoooo++++oooooooo....                ",
"            ....OOOOXXXXOOOOoooo++++oooooooo....                ",
"            ....OOOOXXXXOOOOoooo++++oooooooo....                ",
"            ....OOOOXXXXOOOO++++++++oooooooo....                ",
"            ....OOOOXXXXOOOO++++++++oooooooo....                ",
"            ....OOOOXXXXOOOO++++++++oooooooo....                ",
"            ....OOOOXXXXOOOO++++++++oooooooo....                ",
"            ....OOOOoooo++++++++OOOOoooooooo....                ",
"            ....OOOOoooo++++++++OOOOoooooooo....                ",
"            ....OOOOoooo++++++++OOOOoooooooo....                ",
"            ....OOOOoooo++++++++OOOOoooooooo....                ",
"                ....++++++++OOOOXXXXXXXX....                    ",
"                ....++++++++OOOOXXXXXXXX....                    ",
"                ....++++++++OOOOXXXXXXXX....                    ",
"                ....++++++++OOOOXXXXXXXX....                    ",
"                ....++++OOOOOOOOoooooooo....                    ",
"                ....++++OOOOOOOOoooooooo....                    ",
"                ....++++OOOOOOOOoooooooo....                    ",
"                ....++++OOOOOOOOoooooooo....                    ",
"                    ....ooooXXXXXXXX....                        ",
"                    ....ooooXXXXXXXX....                        ",
"                    ....ooooXXXXXXXX....                        ",
"                    ....ooooXXXXXXXX....                        ",
"                        ............                            ",
"                        ............                            ",
"                        ............                            ",
"                        ............                            "
};
