/* XPM */
static char *result[] = {
/* columns rows colors chars-per-pixel */
"64 64 10 1 ",
"  c #1E5232",
". c #115A37",
"X c #083E1E",
"o c #0A4626",
"O c black",
"+ c #17482C",
"@ c #F9AB0F",
"# c #FEFEFE",
"$ c #FECC0F",
"% c #E98710",
/* pixels */
"    ........XXXXooooXXXXOOOOOOOOOOOOOOOO....++++        ....++++",
"    ........XXXXooooXXXXOOOOOOOOOOOOOOOO....++++        ....++++",
"    ........XXXXooooXXXXOOOOOOOOOOOOOOOO....++++        ....++++",
"    ........XXXXooooXXXXOOOOOOOOOOOOOOOO....++++        ....++++",
"++++++++........OOOOOOOO@@@@@@@@@@@@@@@@OOOOOOOO........        ",
"++++++++........OOOOOOOO@@@@@@@@@@@@@@@@OOOOOOOO........        ",
"++++++++........OOOOOOOO@@@@@@@@@@@@@@@@OOOOOOOO........        ",
"++++++++........OOOOOOOO@@@@@@@@@@@@@@@@OOOOOOOO........        ",
"    ++++    OOOO@@@@@@@@####$$$$$$$$$$$$%%%%%%%%OOOO....XXXX++++",
"    ++++    OOOO@@@@@@@@####$$$$$$$$$$$$%%%%%%%%OOOO....XXXX++++",
"    ++++    OOOO@@@@@@@@####$$$$$$$$$$$$%%%%%%%%OOOO....XXXX++++",
"    ++++    OOOO@@@@@@@@####$$$$$$$$$$$$%%%%%%%%OOOO....XXXX++++",
"++++XXXXOOOO@@@@########$$$$$$$$$$$$$$$$$$$$$$$$%%%%OOOOooooXXXX",
"++++XXXXOOOO@@@@########$$$$$$$$$$$$$$$$$$$$$$$$%%%%OOOOooooXXXX",
"++++XXXXOOOO@@@@########$$$$$$$$$$$$$$$$$$$$$$$$%%%%OOOOooooXXXX",
"++++XXXXOOOO@@@@########$$$$$$$$$$$$$$$$$$$$$$$$%%%%OOOOooooXXXX",
"    OOOO@@@@####$$$$$$$$%%%%%%%%%%%%%%%%$$$$$$$$$$$$%%%%OOOOoooo",
"    OOOO@@@@####$$$$$$$$%%%%%%%%%%%%%%%%$$$$$$$$$$$$%%%%OOOOoooo",
"    OOOO@@@@####$$$$$$$$%%%%%%%%%%%%%%%%$$$$$$$$$$$$%%%%OOOOoooo",
"    OOOO@@@@####$$$$$$$$%%%%%%%%%%%%%%%%$$$$$$$$$$$$%%%%OOOOoooo",
"    OOOO@@@@####$$$$%%%%@@@@@@@@@@@@@@@@%%%%$$$$$$$$%%%%OOOO    ",
"    OOOO@@@@####$$$$%%%%@@@@@@@@@@@@@@@@%%%%$$$$$$$$%%%%OOOO    ",
"    OOOO@@@@####$$$$%%%%@@@@@@@@@@@@@@@@%%%%$$$$$$$$%%%%OOOO    ",
"    OOOO@@@@####$$$$%%%%@@@@@@@@@@@@@@@@%%%%$$$$$$$$%%%%OOOO    ",
"OOOO@@@@####$$$$%%%%@@@@@@@@@@@@@@@@$$$$$$$$@@@@$$$$$$$$%%%%OOOO",
"OOOO@@@@####$$$$%%%%@@@@@@@@@@@@@@@@$$$$$$$$@@@@$$$$$$$$%%%%OOOO",
"OOOO@@@@####$$$$%%%%@@@@@@@@@@@@@@@@$$$$$$$$@@@@$$$$$$$$%%%%OOOO",
"OOOO@@@@####$$$$%%%%@@@@@@@@@@@@@@@@$$$$$$$$@@@@$$$$$$$$%%%%OOOO",
"OOOO@@@@$$$$$$$$%%%%@@@@@@@@@@@@$$$$$$$$$$$$@@@@$$$$$$$$%%%%OOOO",
"OOOO@@@@$$$$$$$$%%%%@@@@@@@@@@@@$$$$$$$$$$$$@@@@$$$$$$$$%%%%OOOO",
"OOOO@@@@$$$$$$$$%%%%@@@@@@@@@@@@$$$$$$$$$$$$@@@@$$$$$$$$%%%%OOOO",
"OOOO@@@@$$$$$$$$%%%%@@@@@@@@@@@@$$$$$$$$$$$$@@@@$$$$$$$$%%%%OOOO",
"OOOO@@@@$$$$$$$$%%%%@@@@@@@@$$$$$$$$$$$$####@@@@$$$$$$$$%%%%OOOO",
"OOOO@@@@$$$$$$$$%%%%@@@@@@@@$$$$$$$$$$$$####@@@@$$$$$$$$%%%%OOOO",
"OOOO@@@@$$$$$$$$%%%%@@@@@@@@$$$$$$$$$$$$####@@@@$$$$$$$$%%%%OOOO",
"OOOO@@@@$$$$$$$$%%%%@@@@@@@@$$$$$$$$$$$$####@@@@$$$$$$$$%%%%OOOO",
"OOOO@@@@$$$$$$$$%%%%@@@@$$$$$$$$$$$$########@@@@$$$$$$$$%%%%OOOO",
"OOOO@@@@$$$$$$$$%%%%@@@@$$$$$$$$$$$$########@@@@$$$$$$$$%%%%OOOO",
"OOOO@@@@$$$$$$$$%%%%@@@@$$$$$$$$$$$$########@@@@$$$$$$$$%%%%OOOO",
"OOOO@@@@$$$$$$$$%%%%@@@@$$$$$$$$$$$$########@@@@$$$$$$$$%%%%OOOO",
"....OOOO@@@@$$$$$$$$%%%%$$$$$$$$########@@@@$$$$$$$$%%%%OOOO++++",
"....OOOO@@@@$$$$$$$$%%%%$$$$$$$$########@@@@$$$$$$$$%%%%OOOO++++",
"....OOOO@@@@$$$$$$$$%%%%$$$$$$$$########@@@@$$$$$$$$%%%%OOOO++++",
"....OOOO@@@@$$$$$$$$%%%%$$$$$$$$########@@@@$$$$$$$$%%%%OOOO++++",
"XXXXOOOO@@@@$$$$$$$$$$$$@@@@@@@@@@@@@@@@$$$$$$$$$$$$%%%%OOOOXXXX",
"XXXXOOOO@@@@$$$$$$$$$$$$@@@@@@@@@@@@@@@@$$$$$$$$$$$$%%%%OOOOXXXX",
"XXXXOOOO@@@@$$$$$$$$$$$$@@@@@@@@@@@@@@@@$$$$$$$$$$$$%%%%OOOOXXXX",
"XXXXOOOO@@@@$$$$$$$$$$$$@@@@@@@@@@@@@@@@$$$$$$$$$$$$%%%%OOOOXXXX",
"++++    OOOO@@@@$$$$$$$$$$$$$$$$$$$$$$$$$$$$$$$$%%%%OOOO        ",
"++++    OOOO@@@@$$$$$$$$$$$$$$$$$$$$$$$$$$$$$$$$%%%%OOOO        ",
"++++    OOOO@@@@$$$$$$$$$$$$$$$$$$$$$$$$$$$$$$$$%%%%OOOO        ",
"++++    OOOO@@@@$$$$$$$$$$$$$$$$$$$$$$$$$$$$$$$$%%%%OOOO        ",
"++++XXXX++++OOOO@@@@@@@@$$$$$$$$$$$$$$$$%%%%%%%%OOOO    ........",
"++++XXXX++++OOOO@@@@@@@@$$$$$$$$$$$$$$$$%%%%%%%%OOOO    ........",
"++++XXXX++++OOOO@@@@@@@@$$$$$$$$$$$$$$$$%%%%%%%%OOOO    ........",
"++++XXXX++++OOOO@@@@@@@@$$$$$$$$$$$$$$$$%%%%%%%%OOOO    ........",
"XXXXXXXX    ++++OOOOOOOO@@@@@@@@@@@@@@@@OOOOOOOO    XXXXXXXXXXXX",
"XXXXXXXX    ++++OOOOOOOO@@@@@@@@@@@@@@@@OOOOOOOO    XXXXXXXXXXXX",
"XXXXXXXX    ++++OOOOOOOO@@@@@@@@@@@@@@@@OOOOOOOO    XXXXXXXXXXXX",
"XXXXXXXX    ++++OOOOOOOO@@@@@@@@@@@@@@@@OOOOOOOO    XXXXXXXXXXXX",
"++++XXXXXXXX    XXXXooooOOOOOOOOOOOOOOOOXXXXXXXXooooooooXXXX    ",
"++++XXXXXXXX    XXXXooooOOOOOOOOOOOOOOOOXXXXXXXXooooooooXXXX    ",
"++++XXXXXXXX    XXXXooooOOOOOOOOOOOOOOOOXXXXXXXXooooooooXXXX    ",
"++++XXXXXXXX    XXXXooooOOOOOOOOOOOOOOOOXXXXXXXXooooooooXXXX    "
};
