/* XPM */
static char *_0d354bf0e5a4173ae13054a17cd7c70s2b5WfU2u7XDpgo5[] = {
/* columns rows colors chars-per-pixel */
"64 64 6 1 ",
"  c None",
". c black",
"X c #E98710",
"o c #F9AB0F",
"O c #FECC0F",
"+ c #FEFEFE",
/* pixels */
"                            ............                        ",
"                            ............                        ",
"                            ............                        ",
"                            ............                        ",
"                        ....oooooooooooo....                    ",
"                        ....oooooooooooo....                    ",
"                        ....oooooooooooo....                    ",
"                        ....oooooooooooo....                    ",
"                        ....OOOOOOOOOOOO....                    ",
"                        ....OOOOOOOOOOOO....                    ",
"                        ....OOOOOOOOOOOO....                    ",
"                        ....OOOOOOOOOOOO....                    ",
"                        ....++++++++++++....                    ",
"                        ....++++++++++++....                    ",
"                        ....++++++++++++....                    ",
"                        ....++++++++++++....                    ",
"                        ....++++++++++++....                    ",
"                        ....++++++++++++....                    ",
"                        ....++++++++++++....                    ",
"                        ....++++++++++++....                    ",
"                        ....++++++++++++....                    ",
"                        ....++++++++++++....                    ",
"                        ....++++++++++++....                    ",
"                        ....++++++++++++....                    ",
"                        ....OOOOOOOOOOOO....                    ",
"                        ....OOOOOOOOOOOO....                    ",
"                        ....OOOOOOOOOOOO....                    ",
"                        ....OOOOOOOOOOOO....                    ",
"                        ....OOOOOOOOOOOO....                    ",
"                        ....OOOOOOOOOOOO....                    ",
"                        ....OOOOOOOOOOOO....                    ",
"                        ....OOOOOOOOOOOO....                    ",
"                        ....oooooooooooo....                    ",
"                        ....oooooooooooo....                    ",
"                        ....oooooooooooo....                    ",
"                        ....oooooooooooo....                    ",
"                        ....oooooooooooo....                    ",
"                        ....oooooooooooo....                    ",
"                        ....oooooooooooo....                    ",
"                        ....oooooooooooo....                    ",
"                        ....oooooooooooo....                    ",
"                        ....oooooooooooo....                    ",
"                        ....oooooooooooo....                    ",
"                        ....oooooooooooo....                    ",
"                        ....XXXXXXXXXXXX....                    ",
"                        ....XXXXXXXXXXXX....                    ",
"                        ....XXXXXXXXXXXX....                    ",
"                        ....XXXXXXXXXXXX....                    ",
"                        ....oooooooooooo....                    ",
"                        ....oooooooooooo....                    ",
"                        ....oooooooooooo....                    ",
"                        ....oooooooooooo....                    ",
"                        ....XXXXXXXXXXXX....                    ",
"                        ....XXXXXXXXXXXX....                    ",
"                        ....XXXXXXXXXXXX....                    ",
"                        ....XXXXXXXXXXXX....                    ",
"                        ....XXXXXXXXXXXX....                    ",
"                        ....XXXXXXXXXXXX....                    ",
"                        ....XXXXXXXXXXXX....                    ",
"                        ....XXXXXXXXXXXX....                    ",
"                            ............                        ",
"                            ............                        ",
"                            ............                        ",
"                            ............                        "
};
