/* XPM */
static char *_238ff90eae04d45b33e5e4775937a16pr31Xiubd1BId74a[] = {
/* columns rows colors chars-per-pixel */
"64 64 12 1 ",
"  c #1E5232",
". c #115A37",
"X c #083E1E",
"o c #0A4626",
"O c #17482C",
"+ c #0E0D0E",
"@ c #D2202C",
"# c #EADFD1",
"$ c #7C776F",
"% c #B3AAA1",
"& c #0A7030",
"* c #EBA724",
/* pixels */
"    ........XXXXooooXXXXOOOO    oooooooo....OOOO        ....OOOO",
"    ........XXXXooooXXXXOOOO    oooooooo....OOOO        ....OOOO",
"    ........XXXXooooXXXXOOOO    oooooooo....OOOO        ....OOOO",
"    ..++++++++++++++++++++++++++++++++oo....OOOO        ....OOOO",
"OOOOOO++++++++++++++++++++++++++++++++......    ........        ",
"OOOOOO++++++++++++++++++++++++++++++++......    ........        ",
"OOOOOO++++++++++++++++++++++++++++++++......    ........        ",
"OOOOOO++++@@@@@@@@@@@@@@@@@@@@@@@@++++++++..    ........        ",
"    OO++++@@@@@@@@@@@@@@@@@@@@@@@@++++++++......oooo....XXXXOOOO",
"    OO++++@@@@@@@@@@@@@@@@@@@@@@@@++++++++......oooo....XXXXOOOO",
"    OO++++@@@@@@@@@@@@@@@@@@@@@@@@++++++++......oooo....XXXXOOOO",
"    OO++++++++++++++++@@@@@@@@@@@@@@@@++++......oooo....XXXXOOOO",
"OOOOXX++++++++++++++++@@@@@@@@@@@@@@@@++++XXXXXXOOOOooooooooXXXX",
"OOOOXX++++++++++++++++@@@@@@@@@@@@@@@@++++XXXXXXOOOOooooooooXXXX",
"OOOOXX++++++++++++++++@@@@@@@@@@@@@@@@++++XXXXXXOOOOooooooooXXXX",
"OOOOXXXXOOOOOO++++++++++++@@@@@@@@++++++++++++++++++++ooooooXXXX",
"    OOOOoooooo++++++++++++@@@@@@@@++++++++++++++++++++  oooooooo",
"    OOOOoooooo++++++++++++@@@@@@@@++++++++++++++++++++  oooooooo",
"    OOOOoooooo++++++++++++@@@@@@@@++++++++++++++++++++  oooooooo",
"    OOOOoooooo++++############$$$$$$$$$$$$$$$$$$$$++++  oooooooo",
"    ........  ++++############$$$$$$$$$$$$$$$$$$$$++++ooXXXX    ",
"    ........  ++++############$$$$$$$$$$$$$$$$$$$$++++ooXXXX    ",
"    ........  ++++############$$$$$$$$$$$$$$$$$$$$++++ooXXXX    ",
"    ........  ++++####++++++++++++++++++++++++++++++++++++XX    ",
"XXXXXXXX    XX++++####++++++++++++++++++++++++++++++++++++XXoooo",
"XXXXXXXX    XX++++####++++++++++++++++++++++++++++++++++++XXoooo",
"XXXXXXXX    XX++++####++++++++++++++++++++++++++++++++++++XXoooo",
"XXXXXXXX    XX++++$$$$++++############%%%%%%%%%%%%%%%%++++XXoooo",
"    ....OOOOXX++++$$$$++++############%%%%%%%%%%%%%%%%++++OOoooo",
"    ....OOOOXX++++$$$$++++############%%%%%%%%%%%%%%%%++++OOoooo",
"    ....OOOOXX++++$$$$++++############%%%%%%%%%%%%%%%%++++OOoooo",
"    ....OOOOXX++++$$$$++++####++++%%%%++++%%%%++++%%%%++++OOoooo",
"XXXX    OOOOOO++++$$$$++++####++++%%%%++++%%%%++++%%%%++++  XXXX",
"XXXX    OOOOOO++++$$$$++++####++++%%%%++++%%%%++++%%%%++++  XXXX",
"XXXX    OOOOOO++++$$$$++++####++++%%%%++++%%%%++++%%%%++++  XXXX",
"XXXX    OOOOOO++++$$$$++++%%%%++++%%%%++++%%%%++++%%%%++++  XXXX",
"            XX++++$$$$++++%%%%++++%%%%++++%%%%++++%%%%++++XXXXXX",
"            XX++++$$$$++++%%%%++++%%%%++++%%%%++++%%%%++++XXXXXX",
"            XX++++$$$$++++%%%%++++%%%%++++%%%%++++%%%%++++XXXXXX",
"          ++++++++++++++++%%%%++++%%%%++++%%%%++++%%%%++++XXXXXX",
"........OO++++++++++++++++%%%%++++%%%%++++%%%%++++%%%%++++OOOOOO",
"........OO++++++++++++++++%%%%++++%%%%++++%%%%++++%%%%++++OOOOOO",
"........OO++++++++++++++++%%%%++++%%%%++++%%%%++++%%%%++++OOOOOO",
"........OO++++&&&&&&&&++++%%%%%%%%%%%%%%%%%%%%%%%%%%%%++++OOOOOO",
"XXXXXXXXOO++++&&&&&&&&++++%%%%%%%%%%%%%%%%%%%%%%%%%%%%++++OOXXXX",
"XXXXXXXXOO++++&&&&&&&&++++%%%%%%%%%%%%%%%%%%%%%%%%%%%%++++OOXXXX",
"XXXXXXXXOO++++&&&&&&&&++++%%%%%%%%%%%%%%%%%%%%%%%%%%%%++++OOXXXX",
"XXXXXXXXOO++++&&&&&&&&++++++++++++++++++++++++++++++++++++OOXXXX",
"OOOO      ++++&&&&&&&&++++++++++++++++++++++++++++++++++++      ",
"OOOO      ++++&&&&&&&&++++++++++++++++++++++++++++++++++++      ",
"OOOO      ++++&&&&&&&&++++++++++++++++++++++++++++++++++++      ",
"OOOO      ++++&&&&&&&&&&&&****++++$$$$$$$$$$$$$$$$++++..        ",
"OOOOXXXXOO++++&&&&&&&&&&&&****++++$$$$$$$$$$$$$$$$++++  ........",
"OOOOXXXXOO++++&&&&&&&&&&&&****++++$$$$$$$$$$$$$$$$++++  ........",
"OOOOXXXXOO++++&&&&&&&&&&&&****++++$$$$$$$$$$$$$$$$++++  ........",
"OOOOXXXXOO++++****************++++$$$$$$$$$$$$$$$$++++  ........",
"XXXXXXXX  ++++****************++++$$$$$$$$$$$$$$$$++++XXXXXXXXXX",
"XXXXXXXX  ++++****************++++$$$$$$$$$$$$$$$$++++XXXXXXXXXX",
"XXXXXXXX  ++++****************++++$$$$$$$$$$$$$$$$++++XXXXXXXXXX",
"XXXXXXXX  ++++++++++++++++++++++++++++++++++++++++++++XXXXXXXXXX",
"OOOOXXXXXX++++++++++++++++++++++++++++++++++++++++++++ooXXXX    ",
"OOOOXXXXXX++++++++++++++++++++++++++++++++++++++++++++ooXXXX    ",
"OOOOXXXXXX++++++++++++++++++++++++++++++++++++++++++++ooXXXX    ",
"OOOOXXXXXXXX    XXXXoooooooo        ooooXXXXXXXXooooooooXXXX    "
};
