/* XPM */
static char *result[] = {
/* columns rows colors chars-per-pixel */
"64 64 9 1 ",
"  c #7A4C46",
". c #754C60",
"X c #986B55",
"o c #90625D",
"O c #AA7959",
"+ c #C49A6C",
"@ c #DCB98A",
"# c #E8CFA6",
"$ c None",
/* pixels */
"................................................................",
"................................................................",
"................................................................",
"................................................................",
"++++++++....$$$$$$$$$$$$$$$$$$$$$$$$$$$$$$$$$$$$$$$$....++++++++",
"++++++++....$$$$$$$$$$$$$$$$$$$$$$$$$$$$$$$$$$$$$$$$....++++++++",
"++++++++....$$$$$$$$$$$$$$$$$$$$$$$$$$$$$$$$$$$$$$$$....++++++++",
"++++++++....$$$$$$$$$$$$$$$$$$$$$$$$$$$$$$$$$$$$$$$$....++++++++",
"++++++++........$$$$$$$$$$$$$$$$$$$$$$$$$$$$$$$$$$$$....++++++++",
"++++++++........$$$$$$$$$$$$$$$$$$$$$$$$$$$$$$$$$$$$....++++++++",
"++++++++........$$$$$$$$$$$$$$$$$$$$$$$$$$$$$$$$$$$$....++++++++",
"++++++++........$$$$$$$$$$$$$$$$$$$$$$$$$$$$$$$$$$$$....++++++++",
"++++++++........$$$$$$$$$$$$$$$$$$$$$$$$$$$$$$$$$$$$....++++++++",
"++++++++........$$$$$$$$$$$$$$$$$$$$$$$$$$$$$$$$$$$$....++++++++",
"++++++++........$$$$$$$$$$$$$$$$$$$$$$$$$$$$$$$$$$$$....++++++++",
"++++++++........$$$$$$$$$$$$$$$$$$$$$$$$$$$$$$$$$$$$....++++++++",
"@@@@@@@@....XXXX$$$$$$$$$$$$$$$$$$$$$$$$$$$$$$$$$$$$....@@@@@@@@",
"@@@@@@@@....X++X$$$$$$$$$$$$$$$$$$$$$$$$$$$$$$$$$$$$....@@@@@@@@",
"@@@@@@@@....X++X$$$$$$$$$$$$$$$$$$$$$$$$$$$$$$$$$$$$....@@@@@@@@",
"@@@@@@@@....XXXX$$$$$$$$$$$$$$$$$$$$$$$$$$$$$$$$$$$$....@@@@@@@@",
"OOOOOOOO....    $$$$$$$$$$$$$$$$$$$$$$$$$$$$$$$$$$$$....OOOOOOOO",
"OOOOOOOO....    $$$$$$$$$$$$$$$$$$$$$$$$$$$$$$$$$$$$....OOOOOOOO",
"OOOOOOOO....    $$$$$$$$$$$$$$$$$$$$$$$$$$$$$$$$$$$$....OOOOOOOO",
"OOOOOOOO....    $$$$$$$$$$$$$$$$$$$$$$$$$$$$$$$$$$$$....OOOOOOOO",
"OOOOOOOO....    $$$$$$$$$$$$$$$$$$$$$$$$$$$$$$$$$$$$....OOOOOOOO",
"OOOOOOOO....    $$$$$$$$$$$$$$$$$$$$$$$$$$$$$$$$$$$$....OOOOOOOO",
"OOOOOOOO....    $$$$$$$$$$$$$$$$$$$$$$$$$$$$$$$$$$$$....OOOOOOOO",
"OOOOOOOO....    $$$$$$$$$$$$$$$$$$$$$$$$$$$$$$$$$$$$....OOOOOOOO",
"oooooooo....    $$$$$$$$$$$$$$$$$$$$$$$$$$$$$$$$$$$$....oooooooo",
"oooooooo....    $$$$$$$$$$$$$$$$$$$$$$$$$$$$$$$$$$$$....oooooooo",
"oooooooo....    $$$$$$$$$$$$$$$$$$$$$$$$$$$$$$$$$$$$....oooooooo",
"oooooooo....    $$$$$$$$$$$$$$$$$$$$$$$$$$$$$$$$$$$$....oooooooo",
"OOOOOOOO....    $$$$$$$$$$$$$$$$$$$$$$$$$$$$$$$$$$$$....OOOOOOOO",
"OOOOOOOO....    $$$$$$$$$$$$$$$$$$$$$$$$$$$$$$$$$$$$....OOOOOOOO",
"OOOOOOOO....    $$$$$$$$$$$$$$$$$$$$$$$$$$$$$$$$$$$$....OOOOOOOO",
"OOOOOOOO....    $$$$$$$$$$$$$$$$$$$$$$$$$$$$$$$$$$$$....OOOOOOOO",
"OOOOOOOO....    $$$$$$$$$$$$$$$$$$$$$$$$$$$$$$$$$$$$....OOOOOOOO",
"OOOOOOOO....    $$$$$$$$$$$$$$$$$$$$$$$$$$$$$$$$$$$$....OOOOOOOO",
"OOOOOOOO....    $$$$$$$$$$$$$$$$$$$$$$$$$$$$$$$$$$$$....OOOOOOOO",
"OOOOOOOO....    ####$$$$$$$$$$$$$$$$$$$$$$$$$$$$$$$$....OOOOOOOO",
"OOOOOOOO....    ####$$$$$$$$$$$$$$$$$$$$$$$$$$$$$$$$....OOOOOOOO",
"OOOOOOOO....    ####$$$$$$$$$$$$$$$$$$$$$$$$$$$$$$$$....OOOOOOOO",
"OOOOOOOO....    ####$$$$$$$$$$$$$$$$$$$$$$$$$$$$$$$$....OOOOOOOO",
"OOOOOOOO....    ####$$$$$$$$$$$$$$$$$$$$$$$$$$$$$$$$....OOOOOOOO",
"oooooooo....    $$$$$$$$$$$$$$$$$$$$$$$$$$$$$$$$$$$$....oooooooo",
"oooooooo....    $$$$$$$$$$$$$$$$$$$$$$$$$$$$$$$$$$$$....oooooooo",
"oooooooo....    $$$$$$$$$$$$$$$$$$$$$$$$$$$$$$$$$$$$....oooooooo",
"oooooooo....    $$$$$$$$$$$$$$$$$$$$$$$$$$$$$$$$$$$$....oooooooo",
"OOOOOOOO....    $$$$$$$$$$$$$$$$$$$$$$$$$$$$$$$$$$$$....OOOOOOOO",
"OOOOOOOO....    $$$$$$$$$$$$$$$$$$$$$$$$$$$$$$$$$$$$....OOOOOOOO",
"OOOOOOOO....    $$$$$$$$$$$$$$$$$$$$$$$$$$$$$$$$$$$$....OOOOOOOO",
"OOOOOOOO....    $$$$$$$$$$$$$$$$$$$$$$$$$$$$$$$$$$$$....OOOOOOOO",
"OOOOOOOO....    $$$$$$$$$$$$$$$$$$$$$$$$$$$$$$$$$$$$....OOOOOOOO",
"OOOOOOOO....    $$$$$$$$$$$$$$$$$$$$$$$$$$$$$$$$$$$$....OOOOOOOO",
"OOOOOOOO....    $$$$$$$$$$$$$$$$$$$$$$$$$$$$$$$$$$$$....OOOOOOOO",
"OOOOOOOO....    $$$$$$$$$$$$$$$$$$$$$$$$$$$$$$$$$$$$....OOOOOOOO",
"OOOOOOOO....    $$$$$$$$$$$$$$$$$$$$$$$$$$$$$$$$$$$$....OOOOOOOO",
"OOOOOOOO....    $$$$$$$$$$$$$$$$$$$$$$$$$$$$$$$$$$$$....OOOOOOOO",
"OOOOOOOO....    $$$$$$$$$$$$$$$$$$$$$$$$$$$$$$$$$$$$....OOOOOOOO",
"OOOOOOOO....    $$$$$$$$$$$$$$$$$$$$$$$$$$$$$$$$$$$$....OOOOOOOO",
"................................................................",
"................................................................",
"................................................................",
"................................................................"
};
