/* XPM */
static char *ce0034aa45ff4628b13107327be4a9c1YYndvTOGbDSHlDfX[] = {
/* columns rows colors chars-per-pixel */
"64 64 16 1 ",
"  c #1E5232",
". c #115A37",
"X c #083E1E",
"o c #0A4626",
"O c #1A0521",
"+ c #17482C",
"@ c #3678F2",
"# c #4701A8",
"$ c #E5928B",
"% c #F8ECF7",
"& c #005739",
"* c #FFC8A8",
"= c #E9F236",
"- c #BA7E0E",
"; c #BF0E30",
": c #820036",
/* pixels */
"    ........XXXXooooXXXXOOOOOOOOOOOOoooo....++++        ....++++",
"    ........XXXXooooXXXXOOOOOOOOOOOOoooo....++++        ....++++",
"    ........XXXXooooXXXXOOOOOOOOOOOOoooo....++++        ....++++",
"    ........XXXXooooXXXXOOOOOOOOOOOOoooo....++++        ....++++",
"++++++++........OOOOOOOO@@@@@@@@####OOOOOOOO    ........        ",
"++++++++........OOOOOOOO@@@@@@@@####OOOOOOOO    ........        ",
"++++++++........OOOOOOOO@@@@@@@@####OOOOOOOO    ........        ",
"++++++++........OOOOOOOO@@@@@@@@####OOOOOOOO    ........        ",
"    ++++    OOOO########@@@@@@@@@@@@@@@@####OOOOoooo....XXXX++++",
"    ++++    OOOO########@@@@@@@@@@@@@@@@####OOOOoooo....XXXX++++",
"    ++++    OOOO########@@@@@@@@@@@@@@@@####OOOOoooo....XXXX++++",
"    ++++    OOOO########@@@@@@@@@@@@@@@@####OOOOoooo....XXXX++++",
"++++XXXX++++++++OOOO@@@@@@@@@@@@@@@@####@@@@####OOOOooooooooXXXX",
"++++XXXX++++++++OOOO@@@@@@@@@@@@@@@@####@@@@####OOOOooooooooXXXX",
"++++XXXX++++++++OOOO@@@@@@@@@@@@@@@@####@@@@####OOOOooooooooXXXX",
"++++XXXX++++++++OOOO@@@@@@@@@@@@@@@@####@@@@####OOOOooooooooXXXX",
"    ++++ooooOOOO####@@@@####@@@@############@@@@OOOO    oooooooo",
"    ++++ooooOOOO####@@@@####@@@@############@@@@OOOO    oooooooo",
"    ++++ooooOOOO####@@@@####@@@@############@@@@OOOO    oooooooo",
"    ++++ooooOOOO####@@@@####@@@@############@@@@OOOO    oooooooo",
"    ........OOOO@@@@OOOOOOOO$$$$OOOOOOOOOOOO@@@@####OOOOXXXX    ",
"    ........OOOO@@@@OOOOOOOO$$$$OOOOOOOOOOOO@@@@####OOOOXXXX    ",
"    ........OOOO@@@@OOOOOOOO$$$$OOOOOOOOOOOO@@@@####OOOOXXXX    ",
"    ........OOOO@@@@OOOOOOOO$$$$OOOOOOOOOOOO@@@@####OOOOXXXX    ",
"XXXXXXXX    OOOO@@@@%%%%&&&&$$$$****&&&&%%%%@@@@####OOOOXXXXoooo",
"XXXXXXXX    OOOO@@@@%%%%&&&&$$$$****&&&&%%%%@@@@####OOOOXXXXoooo",
"XXXXXXXX    OOOO@@@@%%%%&&&&$$$$****&&&&%%%%@@@@####OOOOXXXXoooo",
"XXXXXXXX    OOOO@@@@%%%%&&&&$$$$****&&&&%%%%@@@@####OOOOXXXXoooo",
"    ....OOOO====####OOOO$$$$********$$$$OOOO####====OOOO++++oooo",
"    ....OOOO====####OOOO$$$$********$$$$OOOO####====OOOO++++oooo",
"    ....OOOO====####OOOO$$$$********$$$$OOOO####====OOOO++++oooo",
"    ....OOOO====####OOOO$$$$********$$$$OOOO####====OOOO++++oooo",
"XXXX    OOOO----====####OOOOOOOOOOOOOOOO####====----OOOO    XXXX",
"XXXX    OOOO----====####OOOOOOOOOOOOOOOO####====----OOOO    XXXX",
"XXXX    OOOO----====####OOOOOOOOOOOOOOOO####====----OOOO    XXXX",
"XXXX    OOOO----====####OOOOOOOOOOOOOOOO####====----OOOO    XXXX",
"        OOOOOOOO--------====--------====--------OOOOOOOOXXXXXXXX",
"        OOOOOOOO--------====--------====--------OOOOOOOOXXXXXXXX",
"        OOOOOOOO--------====--------====--------OOOOOOOOXXXXXXXX",
"        OOOOOOOO--------====--------====--------OOOOOOOOXXXXXXXX",
"........OOOO$$$$OOOOOOOO;;;;####@@@@::::OOOOOOOO::::OOOO++++++++",
"........OOOO$$$$OOOOOOOO;;;;####@@@@::::OOOOOOOO::::OOOO++++++++",
"........OOOO$$$$OOOOOOOO;;;;####@@@@::::OOOOOOOO::::OOOO++++++++",
"........OOOO$$$$OOOOOOOO;;;;####@@@@::::OOOOOOOO::::OOOO++++++++",
"XXXXXXXXOOOO$$$$$$$$OOOO::::########::::OOOO****;;;;OOOO++++XXXX",
"XXXXXXXXOOOO$$$$$$$$OOOO::::########::::OOOO****;;;;OOOO++++XXXX",
"XXXXXXXXOOOO$$$$$$$$OOOO::::########::::OOOO****;;;;OOOO++++XXXX",
"XXXXXXXXOOOO$$$$$$$$OOOO::::########::::OOOO****;;;;OOOO++++XXXX",
"++++    OOOOOOOOOOOOOOOO----OOOO====----OOOO$$$$****OOOO        ",
"++++    OOOOOOOOOOOOOOOO----OOOO====----OOOO$$$$****OOOO        ",
"++++    OOOOOOOOOOOOOOOO----OOOO====----OOOO$$$$****OOOO        ",
"++++    OOOOOOOOOOOOOOOO----OOOO====----OOOO$$$$****OOOO        ",
"++++XXXXOOOO::::::::OOOO####OOOO@@@@####OOOOOOOOOOOOOOOO........",
"++++XXXXOOOO::::::::OOOO####OOOO@@@@####OOOOOOOOOOOOOOOO........",
"++++XXXXOOOO::::::::OOOO####OOOO@@@@####OOOOOOOOOOOOOOOO........",
"++++XXXXOOOO::::::::OOOO####OOOO@@@@####OOOOOOOOOOOOOOOO........",
"XXXXXXXXOOOO::::::::;;;;OOOOOOOO########OOOO;;;;::::OOOOXXXXXXXX",
"XXXXXXXXOOOO::::::::;;;;OOOOOOOO########OOOO;;;;::::OOOOXXXXXXXX",
"XXXXXXXXOOOO::::::::;;;;OOOOOOOO########OOOO;;;;::::OOOOXXXXXXXX",
"XXXXXXXXOOOO::::::::;;;;OOOOOOOO########OOOO;;;;::::OOOOXXXXXXXX",
"++++XXXXXXXXOOOOOOOOOOOOOOOOOOOOOOOOOOOOOOOOOOOOOOOOooooXXXX    ",
"++++XXXXXXXXOOOOOOOOOOOOOOOOOOOOOOOOOOOOOOOOOOOOOOOOooooXXXX    ",
"++++XXXXXXXXOOOOOOOOOOOOOOOOOOOOOOOOOOOOOOOOOOOOOOOOooooXXXX    ",
"++++XXXXXXXXOOOOOOOOOOOOOOOOOOOOOOOOOOOOOOOOOOOOOOOOooooXXXX    "
};
