/* XPM */
static char *result[] = {
/* columns rows colors chars-per-pixel */
"64 64 21 1 ",
"  c #754C60",
". c #115A37",
"X c #083E1E",
"o c #0A4626",
"O c #1A0521",
"+ c #17482C",
"@ c #1E5232",
"# c #C49A6C",
"$ c #3678F2",
"% c #4701A8",
"& c #DCB98A",
"* c #AA7959",
"= c #E5928B",
"- c #F8ECF7",
"; c #005739",
": c #FFC8A8",
"> c #90625D",
", c #E9F236",
"< c #BA7E0E",
"1 c #820036",
"2 c #BF0E30",
/* pixels */
"        ....XXXXooooXXXXOOOOOOOOOOOOoooo....++++@@@@@@@@        ",
"        ....XXXXooooXXXXOOOOOOOOOOOOoooo....++++@@@@@@@@        ",
"        ....XXXXooooXXXXOOOOOOOOOOOOoooo....++++@@@@@@@@        ",
"        ....XXXXooooXXXXOOOOOOOOOOOOoooo....++++@@@@@@@@        ",
"########    ....OOOOOOOO$$$$$$$$%%%%OOOOOOOO@@@@....    ########",
"########    ....OOOOOOOO$$$$$$$$%%%%OOOOOOOO@@@@....    ########",
"########    ....OOOOOOOO$$$$$$$$%%%%OOOOOOOO@@@@....    ########",
"########    ....OOOOOOOO$$$$$$$$%%%%OOOOOOOO@@@@....    ########",
"########    OOOO%%%%%%%%$$$$$$$$$$$$$$$$%%%%OOOOoooo    ########",
"########    OOOO%%%%%%%%$$$$$$$$$$$$$$$$%%%%OOOOoooo    ########",
"########    OOOO%%%%%%%%$$$$$$$$$$$$$$$$%%%%OOOOoooo    ########",
"########    OOOO%%%%%%%%$$$$$$$$$$$$$$$$%%%%OOOOoooo    ########",
"########        OOOO$$$$$$$$$$$$$$$$%%%%$$$$%%%%OOOO    ########",
"########        OOOO$$$$$$$$$$$$$$$$%%%%$$$$%%%%OOOO    ########",
"########        OOOO$$$$$$$$$$$$$$$$%%%%$$$$%%%%OOOO    ########",
"########        OOOO$$$$$$$$$$$$$$$$%%%%$$$$%%%%OOOO    ########",
"&&&&&&&&    OOOO%%%%$$$$%%%%$$$$%%%%%%%%%%%%$$$$OOOO    &&&&&&&&",
"&&&&&&&&    OOOO%%%%$$$$%%%%$$$$%%%%%%%%%%%%$$$$OOOO    &&&&&&&&",
"&&&&&&&&    OOOO%%%%$$$$%%%%$$$$%%%%%%%%%%%%$$$$OOOO    &&&&&&&&",
"&&&&&&&&    OOOO%%%%$$$$%%%%$$$$%%%%%%%%%%%%$$$$OOOO    &&&&&&&&",
"********    OOOO$$$$OOOOOOOO====OOOOOOOOOOOO$$$$%%%%OOOO********",
"********    OOOO$$$$OOOOOOOO====OOOOOOOOOOOO$$$$%%%%OOOO********",
"********    OOOO$$$$OOOOOOOO====OOOOOOOOOOOO$$$$%%%%OOOO********",
"********    OOOO$$$$OOOOOOOO====OOOOOOOOOOOO$$$$%%%%OOOO********",
"********    OOOO$$$$----;;;;====::::;;;;----$$$$%%%%OOOO********",
"********    OOOO$$$$----;;;;====::::;;;;----$$$$%%%%OOOO********",
"********    OOOO$$$$----;;;;====::::;;;;----$$$$%%%%OOOO********",
"********    OOOO$$$$----;;;;====::::;;;;----$$$$%%%%OOOO********",
">>>>>>>>OOOO,,,,%%%%OOOO====::::::::====OOOO%%%%,,,,OOOO>>>>>>>>",
">>>>>>>>OOOO,,,,%%%%OOOO====::::::::====OOOO%%%%,,,,OOOO>>>>>>>>",
">>>>>>>>OOOO,,,,%%%%OOOO====::::::::====OOOO%%%%,,,,OOOO>>>>>>>>",
">>>>>>>>OOOO,,,,%%%%OOOO====::::::::====OOOO%%%%,,,,OOOO>>>>>>>>",
"********OOOO<<<<,,,,%%%%OOOOOOOOOOOOOOOO%%%%,,,,<<<<OOOO********",
"********OOOO<<<<,,,,%%%%OOOOOOOOOOOOOOOO%%%%,,,,<<<<OOOO********",
"********OOOO<<<<,,,,%%%%OOOOOOOOOOOOOOOO%%%%,,,,<<<<OOOO********",
"********OOOO<<<<,,,,%%%%OOOOOOOOOOOOOOOO%%%%,,,,<<<<OOOO********",
"********OOOOOOOO<<<<<<<<,,,,<<<<<<<<,,,,<<<<<<<<OOOOOOOO********",
"********OOOOOOOO<<<<<<<<,,,,<<<<<<<<,,,,<<<<<<<<OOOOOOOO********",
"********OOOOOOOO<<<<<<<<,,,,<<<<<<<<,,,,<<<<<<<<OOOOOOOO********",
"********OOOOOOOO<<<<<<<<,,,,<<<<<<<<,,,,<<<<<<<<OOOOOOOO********",
"********OOOO1111OOOOOOOO2222%%%%$$$$1111OOOOOOOO====OOOO********",
"********OOOO1111OOOOOOOO2222%%%%$$$$1111OOOOOOOO====OOOO********",
"********OOOO1111OOOOOOOO2222%%%%$$$$1111OOOOOOOO====OOOO********",
"********OOOO1111OOOOOOOO2222%%%%$$$$1111OOOOOOOO====OOOO********",
">>>>>>>>OOOO2222::::OOOO1111%%%%%%%%1111OOOO========OOOO>>>>>>>>",
">>>>>>>>OOOO2222::::OOOO1111%%%%%%%%1111OOOO========OOOO>>>>>>>>",
">>>>>>>>OOOO2222::::OOOO1111%%%%%%%%1111OOOO========OOOO>>>>>>>>",
">>>>>>>>OOOO2222::::OOOO1111%%%%%%%%1111OOOO========OOOO>>>>>>>>",
"********OOOO::::====OOOO<<<<,,,,OOOO<<<<OOOOOOOOOOOOOOOO********",
"********OOOO::::====OOOO<<<<,,,,OOOO<<<<OOOOOOOOOOOOOOOO********",
"********OOOO::::====OOOO<<<<,,,,OOOO<<<<OOOOOOOOOOOOOOOO********",
"********OOOO::::====OOOO<<<<,,,,OOOO<<<<OOOOOOOOOOOOOOOO********",
"********OOOOOOOOOOOOOOOO%%%%$$$$OOOO%%%%OOOO11111111OOOO********",
"********OOOOOOOOOOOOOOOO%%%%$$$$OOOO%%%%OOOO11111111OOOO********",
"********OOOOOOOOOOOOOOOO%%%%$$$$OOOO%%%%OOOO11111111OOOO********",
"********OOOOOOOOOOOOOOOO%%%%$$$$OOOO%%%%OOOO11111111OOOO********",
"********OOOO11112222OOOO%%%%%%%%OOOOOOOO222211111111OOOO********",
"********OOOO11112222OOOO%%%%%%%%OOOOOOOO222211111111OOOO********",
"********OOOO11112222OOOO%%%%%%%%OOOOOOOO222211111111OOOO********",
"********OOOO11112222OOOO%%%%%%%%OOOOOOOO222211111111OOOO********",
"            OOOOOOOOOOOOOOOOOOOOOOOOOOOOOOOOOOOOOOOO            ",
"            OOOOOOOOOOOOOOOOOOOOOOOOOOOOOOOOOOOOOOOO            ",
"            OOOOOOOOOOOOOOOOOOOOOOOOOOOOOOOOOOOOOOOO            ",
"            OOOOOOOOOOOOOOOOOOOOOOOOOOOOOOOOOOOOOOOO            "
};
