/* XPM */
static char *result[] = {
/* columns rows colors chars-per-pixel */
"64 64 12 1 ",
"  c #1A0521",
". c #005739",
"X c #820036",
"o c #BF0E30",
"O c #BA7E0E",
"+ c #E9F236",
"@ c #4701A8",
"# c #3678F2",
"$ c #E5928B",
"% c #FFC8A8",
"& c #F8ECF7",
"* c None",
/* pixels */
"****************************************************************",
"****************************************************************",
"****************************************************************",
"****************************************************************",
"************************            ****************************",
"************************            ****************************",
"************************            ****************************",
"************************            ****************************",
"****************        ########@@@@        ********************",
"****************        ########@@@@        ********************",
"****************        ########@@@@        ********************",
"****************        ########@@@@        ********************",
"************    @@@@@@@@################@@@@    ****************",
"************    @@@@@@@@################@@@@    ****************",
"************    @@@@@@@@################@@@@    ****************",
"************    @@@@@@@@################@@@@    ****************",
"****************    ################@@@@####@@@@    ************",
"****************    ################@@@@####@@@@    ************",
"****************    ################@@@@####@@@@    ************",
"****************    ################@@@@####@@@@    ************",
"************    @@@@####@@@@####@@@@@@@@@@@@####    ************",
"************    @@@@####@@@@####@@@@@@@@@@@@####    ************",
"************    @@@@####@@@@####@@@@@@@@@@@@####    ************",
"************    @@@@####@@@@####@@@@@@@@@@@@####    ************",
"************    ####        $$$$            ####@@@@    ********",
"************    ####        $$$$            ####@@@@    ********",
"************    ####        $$$$            ####@@@@    ********",
"************    ####        $$$$            ####@@@@    ********",
"************    ####&&&&....$$$$%%%%....&&&&####@@@@    ********",
"************    ####&&&&....$$$$%%%%....&&&&####@@@@    ********",
"************    ####&&&&....$$$$%%%%....&&&&####@@@@    ********",
"************    ####&&&&....$$$$%%%%....&&&&####@@@@    ********",
"********    ++++@@@@    $$$$%%%%%%%%$$$$    @@@@++++    ********",
"********    ++++@@@@    $$$$%%%%%%%%$$$$    @@@@++++    ********",
"********    ++++@@@@    $$$$%%%%%%%%$$$$    @@@@++++    ********",
"********    ++++@@@@    $$$$%%%%%%%%$$$$    @@@@++++    ********",
"********    OOOO++++@@@@                @@@@++++        ********",
"********    OOOO++++@@@@                @@@@++++        ********",
"********    OOOO++++@@@@                @@@@++++        ********",
"********    OOOO++++@@@@                @@@@++++        ********",
"********        OOOOOOOO++++OOOOOOOO++++OOOOOOOO$$$$    ********",
"********        OOOOOOOO++++OOOOOOOO++++OOOOOOOO$$$$    ********",
"********        OOOOOOOO++++OOOOOOOO++++OOOOOOOO$$$$    ********",
"********        OOOOOOOO++++OOOOOOOO++++OOOOOOOO$$$$    ********",
"********    oooo%%%%    XXXX@@@@@@@@XXXX    $$$$$$$$    ********",
"********    oooo%%%%    XXXX@@@@@@@@XXXX    $$$$$$$$    ********",
"********    oooo%%%%    XXXX@@@@@@@@XXXX    $$$$$$$$    ********",
"********    oooo%%%%    XXXX@@@@@@@@XXXX    $$$$$$$$    ********",
"********    %%%%$$$$    OOOO++++    OOOO                ********",
"********    %%%%$$$$    OOOO++++    OOOO                ********",
"********    %%%%$$$$    OOOO++++    OOOO                ********",
"********    %%%%$$$$    OOOO++++    OOOO                ********",
"********                @@@@####    @@@@    XXXXXXXX    ********",
"********                @@@@####    @@@@    XXXXXXXX    ********",
"********                @@@@####    @@@@    XXXXXXXX    ********",
"********                @@@@####    @@@@    XXXXXXXX    ********",
"********    XXXXoooo    @@@@@@@@        ooooXXXXXXXX    ********",
"********    XXXXoooo    @@@@@@@@        ooooXXXXXXXX    ********",
"********    XXXXoooo    @@@@@@@@        ooooXXXXXXXX    ********",
"********    XXXXoooo    @@@@@@@@        ooooXXXXXXXX    ********",
"************                                        ************",
"************                                        ************",
"************                                        ************",
"************                                        ************"
};
