/* XPM */
static char *result[] = {
/* columns rows colors chars-per-pixel */
"64 64 10 1 ",
"  c #1E5232",
". c #115A37",
"X c #083E1E",
"o c #0A4626",
"O c #17482C",
"+ c black",
"@ c #F9AB0F",
"# c #FECC0F",
"$ c #FEFEFE",
"% c #E98710",
/* pixels */
"    ........XXXXooooXXXXOOOO++++++++++++....OOOO        ....OOOO",
"    ........XXXXooooXXXXOOOO++++++++++++....OOOO        ....OOOO",
"    ........XXXXooooXXXXOOOO++++++++++++....OOOO        ....OOOO",
"    ........XXXXooooXXXXOOOO++++++++++++....OOOO        ....OOOO",
"OOOOOOOO........ooooXXXX++++@@@@@@@@@@@@++++    ........        ",
"OOOOOOOO........ooooXXXX++++@@@@@@@@@@@@++++    ........        ",
"OOOOOOOO........ooooXXXX++++@@@@@@@@@@@@++++    ........        ",
"OOOOOOOO........ooooXXXX++++@@@@@@@@@@@@++++    ........        ",
"    OOOO    ooooXXXX....++++############++++....oooo....XXXXOOOO",
"    OOOO    ooooXXXX....++++############++++....oooo....XXXXOOOO",
"    OOOO    ooooXXXX....++++############++++....oooo....XXXXOOOO",
"    OOOO    ooooXXXX....++++############++++....oooo....XXXXOOOO",
"OOOOXXXXOOOOOOOOOOOO....++++$$$$$$$$$$$$++++XXXXOOOOooooooooXXXX",
"OOOOXXXXOOOOOOOOOOOO....++++$$$$$$$$$$$$++++XXXXOOOOooooooooXXXX",
"OOOOXXXXOOOOOOOOOOOO....++++$$$$$$$$$$$$++++XXXXOOOOooooooooXXXX",
"OOOOXXXXOOOOOOOOOOOO....++++$$$$$$$$$$$$++++XXXXOOOOooooooooXXXX",
"    OOOOoooooooo    oooo++++$$$$$$$$$$$$++++    XXXX    oooooooo",
"    OOOOoooooooo    oooo++++$$$$$$$$$$$$++++    XXXX    oooooooo",
"    OOOOoooooooo    oooo++++$$$$$$$$$$$$++++    XXXX    oooooooo",
"    OOOOoooooooo    oooo++++$$$$$$$$$$$$++++    XXXX    oooooooo",
"    ........    OOOOOOOO++++$$$$$$$$$$$$++++OOOO....ooooXXXX    ",
"    ........    OOOOOOOO++++$$$$$$$$$$$$++++OOOO....ooooXXXX    ",
"    ........    OOOOOOOO++++$$$$$$$$$$$$++++OOOO....ooooXXXX    ",
"    ........    OOOOOOOO++++$$$$$$$$$$$$++++OOOO....ooooXXXX    ",
"XXXXXXXX    XXXXooooOOOO++++############++++........    XXXXoooo",
"XXXXXXXX    XXXXooooOOOO++++############++++........    XXXXoooo",
"XXXXXXXX    XXXXooooOOOO++++############++++........    XXXXoooo",
"XXXXXXXX    XXXXooooOOOO++++############++++........    XXXXoooo",
"    ....OOOOXXXXooooXXXX++++############++++oooo........OOOOoooo",
"    ....OOOOXXXXooooXXXX++++############++++oooo........OOOOoooo",
"    ....OOOOXXXXooooXXXX++++############++++oooo........OOOOoooo",
"    ....OOOOXXXXooooXXXX++++############++++oooo........OOOOoooo",
"XXXX    OOOOOOOOXXXXXXXX++++@@@@@@@@@@@@++++XXXX....oooo    XXXX",
"XXXX    OOOOOOOOXXXXXXXX++++@@@@@@@@@@@@++++XXXX....oooo    XXXX",
"XXXX    OOOOOOOOXXXXXXXX++++@@@@@@@@@@@@++++XXXX....oooo    XXXX",
"XXXX    OOOOOOOOXXXXXXXX++++@@@@@@@@@@@@++++XXXX....oooo    XXXX",
"            XXXX....    ++++@@@@@@@@@@@@++++XXXX    ooooXXXXXXXX",
"            XXXX....    ++++@@@@@@@@@@@@++++XXXX    ooooXXXXXXXX",
"            XXXX....    ++++@@@@@@@@@@@@++++XXXX    ooooXXXXXXXX",
"            XXXX....    ++++@@@@@@@@@@@@++++XXXX    ooooXXXXXXXX",
"........OOOO    ....    ++++@@@@@@@@@@@@++++XXXXXXXXXXXXOOOOOOOO",
"........OOOO    ....    ++++@@@@@@@@@@@@++++XXXXXXXXXXXXOOOOOOOO",
"........OOOO    ....    ++++@@@@@@@@@@@@++++XXXXXXXXXXXXOOOOOOOO",
"........OOOO    ....    ++++@@@@@@@@@@@@++++XXXXXXXXXXXXOOOOOOOO",
"XXXXXXXXOOOOOOOO    XXXX++++%%%%%%%%%%%%++++XXXX    OOOOOOOOXXXX",
"XXXXXXXXOOOOOOOO    XXXX++++%%%%%%%%%%%%++++XXXX    OOOOOOOOXXXX",
"XXXXXXXXOOOOOOOO    XXXX++++%%%%%%%%%%%%++++XXXX    OOOOOOOOXXXX",
"XXXXXXXXOOOOOOOO    XXXX++++%%%%%%%%%%%%++++XXXX    OOOOOOOOXXXX",
"OOOO        OOOOoooo    ++++@@@@@@@@@@@@++++    ........        ",
"OOOO        OOOOoooo    ++++@@@@@@@@@@@@++++    ........        ",
"OOOO        OOOOoooo    ++++@@@@@@@@@@@@++++    ........        ",
"OOOO        OOOOoooo    ++++@@@@@@@@@@@@++++    ........        ",
"OOOOXXXXOOOOOOOOOOOO    ++++%%%%%%%%%%%%++++OOOO....    ........",
"OOOOXXXXOOOOOOOOOOOO    ++++%%%%%%%%%%%%++++OOOO....    ........",
"OOOOXXXXOOOOOOOOOOOO    ++++%%%%%%%%%%%%++++OOOO....    ........",
"OOOOXXXXOOOOOOOOOOOO    ++++%%%%%%%%%%%%++++OOOO....    ........",
"XXXXXXXX    OOOOXXXXXXXX++++%%%%%%%%%%%%++++OOOO    XXXXXXXXXXXX",
"XXXXXXXX    OOOOXXXXXXXX++++%%%%%%%%%%%%++++OOOO    XXXXXXXXXXXX",
"XXXXXXXX    OOOOXXXXXXXX++++%%%%%%%%%%%%++++OOOO    XXXXXXXXXXXX",
"XXXXXXXX    OOOOXXXXXXXX++++%%%%%%%%%%%%++++OOOO    XXXXXXXXXXXX",
"OOOOXXXXXXXX    XXXXoooooooo++++++++++++XXXXXXXXooooooooXXXX    ",
"OOOOXXXXXXXX    XXXXoooooooo++++++++++++XXXXXXXXooooooooXXXX    ",
"OOOOXXXXXXXX    XXXXoooooooo++++++++++++XXXXXXXXooooooooXXXX    ",
"OOOOXXXXXXXX    XXXXoooooooo++++++++++++XXXXXXXXooooooooXXXX    "
};
