/* XPM */
static char *result[] = {
/* columns rows colors chars-per-pixel */
"64 64 10 1 ",
"  c #1E5232",
". c #115A37",
"X c #083E1E",
"o c #0A4626",
"O c black",
"+ c #17482C",
"@ c #FEFEFE",
"# c #E98710",
"$ c #FECC0F",
"% c #F9AB0F",
/* pixels */
"    ........XXXXooooXXXXOOOOOOOOOOOOoooo....++++        ....++++",
"    ........XXXXooooXXXXOOOOOOOOOOOOoooo....++++        ....++++",
"    ........XXXXooooXXXXOOOOOOOOOOOOoooo....++++        ....++++",
"    ........XXXXooooXXXXOOOOOOOOOOOOoooo....++++        ....++++",
"++++++++........ooooOOOO@@@@########OOOO....    ........        ",
"++++++++........ooooOOOO@@@@########OOOO....    ........        ",
"++++++++........ooooOOOO@@@@########OOOO....    ........        ",
"++++++++........ooooOOOO@@@@########OOOO....    ........        ",
"    ++++    ooooOOOO@@@@$$$$$$$$%%%%%%%%OOOO....oooo....XXXX++++",
"    ++++    ooooOOOO@@@@$$$$$$$$%%%%%%%%OOOO....oooo....XXXX++++",
"    ++++    ooooOOOO@@@@$$$$$$$$%%%%%%%%OOOO....oooo....XXXX++++",
"    ++++    ooooOOOO@@@@$$$$$$$$%%%%%%%%OOOO....oooo....XXXX++++",
"++++XXXX++++++++OOOO@@@@%%%%$$$$########OOOOXXXX++++ooooooooXXXX",
"++++XXXX++++++++OOOO@@@@%%%%$$$$########OOOOXXXX++++ooooooooXXXX",
"++++XXXX++++++++OOOO@@@@%%%%$$$$########OOOOXXXX++++ooooooooXXXX",
"++++XXXX++++++++OOOO@@@@%%%%$$$$########OOOOXXXX++++ooooooooXXXX",
"    ++++ooooOOOO@@@@$$$$####$$$$$$$$%%%%%%%%OOOOXXXX    oooooooo",
"    ++++ooooOOOO@@@@$$$$####$$$$$$$$%%%%%%%%OOOOXXXX    oooooooo",
"    ++++ooooOOOO@@@@$$$$####$$$$$$$$%%%%%%%%OOOOXXXX    oooooooo",
"    ++++ooooOOOO@@@@$$$$####$$$$$$$$%%%%%%%%OOOOXXXX    oooooooo",
"    ........OOOO$$$$####$$$$####$$$$%%%%%%%%OOOO....ooooXXXX    ",
"    ........OOOO$$$$####$$$$####$$$$%%%%%%%%OOOO....ooooXXXX    ",
"    ........OOOO$$$$####$$$$####$$$$%%%%%%%%OOOO....ooooXXXX    ",
"    ........OOOO$$$$####$$$$####$$$$%%%%%%%%OOOO....ooooXXXX    ",
"XXXXXXXX    OOOO$$$$####$$$$%%%%$$$$%%%%%%%%OOOO....    XXXXoooo",
"XXXXXXXX    OOOO$$$$####$$$$%%%%$$$$%%%%%%%%OOOO....    XXXXoooo",
"XXXXXXXX    OOOO$$$$####$$$$%%%%$$$$%%%%%%%%OOOO....    XXXXoooo",
"XXXXXXXX    OOOO$$$$####$$$$%%%%$$$$%%%%%%%%OOOO....    XXXXoooo",
"    ....++++OOOO$$$$####$$$$%%%%$$$$%%%%%%%%OOOO........++++oooo",
"    ....++++OOOO$$$$####$$$$%%%%$$$$%%%%%%%%OOOO........++++oooo",
"    ....++++OOOO$$$$####$$$$%%%%$$$$%%%%%%%%OOOO........++++oooo",
"    ....++++OOOO$$$$####$$$$%%%%$$$$%%%%%%%%OOOO........++++oooo",
"XXXX    ++++OOOO$$$$####$$$$%%%%$$$$%%%%%%%%OOOO....oooo    XXXX",
"XXXX    ++++OOOO$$$$####$$$$%%%%$$$$%%%%%%%%OOOO....oooo    XXXX",
"XXXX    ++++OOOO$$$$####$$$$%%%%$$$$%%%%%%%%OOOO....oooo    XXXX",
"XXXX    ++++OOOO$$$$####$$$$%%%%$$$$%%%%%%%%OOOO....oooo    XXXX",
"            OOOO$$$$####$$$$%%%%@@@@%%%%%%%%OOOO    ooooXXXXXXXX",
"            OOOO$$$$####$$$$%%%%@@@@%%%%%%%%OOOO    ooooXXXXXXXX",
"            OOOO$$$$####$$$$%%%%@@@@%%%%%%%%OOOO    ooooXXXXXXXX",
"            OOOO$$$$####$$$$%%%%@@@@%%%%%%%%OOOO    ooooXXXXXXXX",
"........++++OOOO$$$$####$$$$@@@@@@@@%%%%%%%%OOOOXXXXXXXX++++++++",
"........++++OOOO$$$$####$$$$@@@@@@@@%%%%%%%%OOOOXXXXXXXX++++++++",
"........++++OOOO$$$$####$$$$@@@@@@@@%%%%%%%%OOOOXXXXXXXX++++++++",
"........++++OOOO$$$$####$$$$@@@@@@@@%%%%%%%%OOOOXXXXXXXX++++++++",
"XXXXXXXX++++OOOO$$$$%%%%@@@@@@@@$$$$%%%%%%%%OOOO    ++++++++XXXX",
"XXXXXXXX++++OOOO$$$$%%%%@@@@@@@@$$$$%%%%%%%%OOOO    ++++++++XXXX",
"XXXXXXXX++++OOOO$$$$%%%%@@@@@@@@$$$$%%%%%%%%OOOO    ++++++++XXXX",
"XXXXXXXX++++OOOO$$$$%%%%@@@@@@@@$$$$%%%%%%%%OOOO    ++++++++XXXX",
"++++        ++++OOOO@@@@@@@@$$$$########OOOO    ........        ",
"++++        ++++OOOO@@@@@@@@$$$$########OOOO    ........        ",
"++++        ++++OOOO@@@@@@@@$$$$########OOOO    ........        ",
"++++        ++++OOOO@@@@@@@@$$$$########OOOO    ........        ",
"++++XXXX++++++++OOOO@@@@$$$$$$$$%%%%%%%%OOOO++++....    ........",
"++++XXXX++++++++OOOO@@@@$$$$$$$$%%%%%%%%OOOO++++....    ........",
"++++XXXX++++++++OOOO@@@@$$$$$$$$%%%%%%%%OOOO++++....    ........",
"++++XXXX++++++++OOOO@@@@$$$$$$$$%%%%%%%%OOOO++++....    ........",
"XXXXXXXX    ++++XXXXOOOO%%%%########OOOO....++++    XXXXXXXXXXXX",
"XXXXXXXX    ++++XXXXOOOO%%%%########OOOO....++++    XXXXXXXXXXXX",
"XXXXXXXX    ++++XXXXOOOO%%%%########OOOO....++++    XXXXXXXXXXXX",
"XXXXXXXX    ++++XXXXOOOO%%%%########OOOO....++++    XXXXXXXXXXXX",
"++++XXXXXXXX    XXXXooooOOOOOOOOOOOOooooXXXXXXXXooooooooXXXX    ",
"++++XXXXXXXX    XXXXooooOOOOOOOOOOOOooooXXXXXXXXooooooooXXXX    ",
"++++XXXXXXXX    XXXXooooOOOOOOOOOOOOooooXXXXXXXXooooooooXXXX    ",
"++++XXXXXXXX    XXXXooooOOOOOOOOOOOOooooXXXXXXXXooooooooXXXX    "
};
