/* XPM */
static char *affc6fb63bf04c99f4d3069f050a06c5rgjHbVDXi41bW9HY[] = {
/* columns rows colors chars-per-pixel */
"64 64 12 1 ",
"  c #1E5232",
". c #115A37",
"X c #083E1E",
"o c #0A4626",
"O c #17482C",
"+ c #0E0D0E",
"@ c #D2202C",
"# c #EADFD1",
"$ c #7C776F",
"% c #B3AAA1",
"& c #0A7030",
"* c #EBA724",
/* pixels */
"    ........XXXXooooXXXXOOOO    oooooooo....OOOO        ....OOOO",
"    ........XXXXooooXXXXOOOO    oooooooo....OOOO        ....OOOO",
"    ........XXXXooooXXXXOOOO    oooooooo....OOOO        ....OOOO",
"    ........XXXXooooXXXXOOOO    oooooooo....OOOO        ....OOOO",
"OOOO++++++++++++++++++++++++++++++++........    ........        ",
"OOOO++++++++++++++++++++++++++++++++........    ........        ",
"OOOO++++++++++++++++++++++++++++++++........    ........        ",
"OOOO++++++++++++++++++++++++++++++++........    ........        ",
"    ++++@@@@@@@@@@@@@@@@@@@@@@@@++++++++........oooo....XXXXOOOO",
"    ++++@@@@@@@@@@@@@@@@@@@@@@@@++++++++........oooo....XXXXOOOO",
"    ++++@@@@@@@@@@@@@@@@@@@@@@@@++++++++........oooo....XXXXOOOO",
"    ++++@@@@@@@@@@@@@@@@@@@@@@@@++++++++........oooo....XXXXOOOO",
"OOOO++++++++++++++++@@@@@@@@@@@@@@@@++++XXXXXXXXOOOOooooooooXXXX",
"OOOO++++++++++++++++@@@@@@@@@@@@@@@@++++XXXXXXXXOOOOooooooooXXXX",
"OOOO++++++++++++++++@@@@@@@@@@@@@@@@++++XXXXXXXXOOOOooooooooXXXX",
"OOOO++++++++++++++++@@@@@@@@@@@@@@@@++++XXXXXXXXOOOOooooooooXXXX",
"    OOOOoooo++++++++++++@@@@@@@@++++++++++++++++++++    oooooooo",
"    OOOOoooo++++++++++++@@@@@@@@++++++++++++++++++++    oooooooo",
"    OOOOoooo++++++++++++@@@@@@@@++++++++++++++++++++    oooooooo",
"    OOOOoooo++++++++++++@@@@@@@@++++++++++++++++++++    oooooooo",
"    ........++++############$$$$$$$$$$$$$$$$$$$$++++ooooXXXX    ",
"    ........++++############$$$$$$$$$$$$$$$$$$$$++++ooooXXXX    ",
"    ........++++############$$$$$$$$$$$$$$$$$$$$++++ooooXXXX    ",
"    ........++++############$$$$$$$$$$$$$$$$$$$$++++ooooXXXX    ",
"XXXXXXXX    ++++####++++++++++++++++++++++++++++++++++++XXXXoooo",
"XXXXXXXX    ++++####++++++++++++++++++++++++++++++++++++XXXXoooo",
"XXXXXXXX    ++++####++++++++++++++++++++++++++++++++++++XXXXoooo",
"XXXXXXXX    ++++####++++++++++++++++++++++++++++++++++++XXXXoooo",
"    ....OOOO++++$$$$++++############%%%%%%%%%%%%%%%%++++OOOOoooo",
"    ....OOOO++++$$$$++++############%%%%%%%%%%%%%%%%++++OOOOoooo",
"    ....OOOO++++$$$$++++############%%%%%%%%%%%%%%%%++++OOOOoooo",
"    ....OOOO++++$$$$++++############%%%%%%%%%%%%%%%%++++OOOOoooo",
"XXXX    OOOO++++$$$$++++####++++%%%%++++%%%%++++%%%%++++    XXXX",
"XXXX    OOOO++++$$$$++++####++++%%%%++++%%%%++++%%%%++++    XXXX",
"XXXX    OOOO++++$$$$++++####++++%%%%++++%%%%++++%%%%++++    XXXX",
"XXXX    OOOO++++$$$$++++####++++%%%%++++%%%%++++%%%%++++    XXXX",
"            ++++$$$$++++%%%%++++%%%%++++%%%%++++%%%%++++XXXXXXXX",
"            ++++$$$$++++%%%%++++%%%%++++%%%%++++%%%%++++XXXXXXXX",
"            ++++$$$$++++%%%%++++%%%%++++%%%%++++%%%%++++XXXXXXXX",
"            ++++$$$$++++%%%%++++%%%%++++%%%%++++%%%%++++XXXXXXXX",
"........++++++++++++++++%%%%++++%%%%++++%%%%++++%%%%++++OOOOOOOO",
"........++++++++++++++++%%%%++++%%%%++++%%%%++++%%%%++++OOOOOOOO",
"........++++++++++++++++%%%%++++%%%%++++%%%%++++%%%%++++OOOOOOOO",
"........++++++++++++++++%%%%++++%%%%++++%%%%++++%%%%++++OOOOOOOO",
"XXXXXXXX++++&&&&&&&&++++%%%%%%%%%%%%%%%%%%%%%%%%%%%%++++OOOOXXXX",
"XXXXXXXX++++&&&&&&&&++++%%%%%%%%%%%%%%%%%%%%%%%%%%%%++++OOOOXXXX",
"XXXXXXXX++++&&&&&&&&++++%%%%%%%%%%%%%%%%%%%%%%%%%%%%++++OOOOXXXX",
"XXXXXXXX++++&&&&&&&&++++%%%%%%%%%%%%%%%%%%%%%%%%%%%%++++OOOOXXXX",
"OOOO    ++++&&&&&&&&++++++++++++++++++++++++++++++++++++        ",
"OOOO    ++++&&&&&&&&++++++++++++++++++++++++++++++++++++        ",
"OOOO    ++++&&&&&&&&++++++++++++++++++++++++++++++++++++        ",
"OOOO    ++++&&&&&&&&++++++++++++++++++++++++++++++++++++        ",
"OOOOXXXX++++&&&&&&&&&&&&****++++$$$$$$$$$$$$$$$$++++    ........",
"OOOOXXXX++++&&&&&&&&&&&&****++++$$$$$$$$$$$$$$$$++++    ........",
"OOOOXXXX++++&&&&&&&&&&&&****++++$$$$$$$$$$$$$$$$++++    ........",
"OOOOXXXX++++&&&&&&&&&&&&****++++$$$$$$$$$$$$$$$$++++    ........",
"XXXXXXXX++++****************++++$$$$$$$$$$$$$$$$++++XXXXXXXXXXXX",
"XXXXXXXX++++****************++++$$$$$$$$$$$$$$$$++++XXXXXXXXXXXX",
"XXXXXXXX++++****************++++$$$$$$$$$$$$$$$$++++XXXXXXXXXXXX",
"XXXXXXXX++++****************++++$$$$$$$$$$$$$$$$++++XXXXXXXXXXXX",
"OOOOXXXX++++++++++++++++++++++++++++++++++++++++++++ooooXXXX    ",
"OOOOXXXX++++++++++++++++++++++++++++++++++++++++++++ooooXXXX    ",
"OOOOXXXX++++++++++++++++++++++++++++++++++++++++++++ooooXXXX    ",
"OOOOXXXX++++++++++++++++++++++++++++++++++++++++++++ooooXXXX    "
};
